**kern	**dynam	**kern	**dynam	**kern	**dynam	**kern	**dynam	**mxhm
*part4	*part4	*part3	*part3	*part2	*part2	*part1	*part1	*part1
*staff4	*	*staff3	*	*staff2	*	*staff1	*	*
*I"Cello	*	*I"Viola	*	*I"2nd Violin	*	*I"1st Violin	*	*
*clefF4	*	*clefC3	*	*clefG2	*	*clefG2	*	*
*k[f#c#g#d#a#]	*	*k[f#c#g#d#a#]	*	*k[f#c#g#d#a#]	*	*k[f#c#g#d#a#]	*	*
*B:	*	*B:	*	*B:	*	*B:	*	*
*M2/2	*	*M2/2	*	*M2/2	*	*M2/2	*	*
*met(c|)	*	*met(c|)	*	*met(c|)	*	*met(c|)	*	*
=1	=1	=1	=1	=1	=1	=1	=1	=1
!	!	!	!	!	!	!LO:TX:a:i:t=semplice	!	!
!LO:TX:a:t=arco	!	!	!	!	!	!LO:TX:a:B:t=No. 5 Presto.	!	!
4FF#'	f	1r	.	1r	.	1r	.	I
4DD#'	.	.	.	.	.	.	.	.
4BBB'	.	.	.	.	.	.	.	.
4DD#'	.	.	.	.	.	.	.	.
=2	=2	=2	=2	=2	=2	=2	=2	=2
1r	.	1r	.	1r	.	1r	.	.
=3	=3	=3	=3	=3	=3	=3	=3	=3
!	!LO:DY:a	!LO:TX:a:t=arco	!LO:DY:a	!LO:TX:a:t=arco	!LO:DY:a	!	!	!
4B	p p	4BB'	p	4D#'	p	4f#'	.	I
4r	.	4D#'	.	4F#'	.	4d#'	.	.
2r	.	4D#'	.	4F#'	.	4B'	.	.
.	.	4BB'	.	4D#'	.	4d#'	.	.
=4	=4	=4	=4	=4	=4	=4	=4	=4
4B	.	4BB	.	4D#	.	(2f#	.	.
4r	.	4D#	.	4F#	.	.	.	.
2r	.	4D#	.	4F#	.	2b)	.	.
.	.	4d#	.	4f#	.	.	.	.
=5	=5	=5	=5	=5	=5	=5	=5	=5
4F#	.	4c#	.	4e	.	4a#'	.	V7
4r	.	4B	.	4d#	.	4b'	.	.
2r	.	4A#	.	4c#	.	4cc#'	.	.
.	.	4G#	.	4B	.	4dd#'	.	.
=6	=6	=6	=6	=6	=6	=6	=6	=6
4F#	.	4F#	.	4A#	.	4ee	.	.
4r	.	4F#	.	4A#	.	4r	.	.
2r	.	4G#	.	4B	.	2r	.	.
.	.	4A#	.	4c#	.	.	.	.
=7	=7	=7	=7	=7	=7	=7	=7	=7
4B	.	4B	.	4d#	.	4dd#'	.	I
4r	.	4B	.	4d#	.	4cc#'	.	.
2r	.	4c#	.	4e	.	4b'	.	.
.	.	4d#	.	4f#	.	4a#'	.	.
=8	=8	=8	=8	=8	=8	=8	=8	=8
4E	.	4e	.	4g#	.	(2g#	.	IV
4r	.	4e	.	4b	.	.	.	.
2r	.	4e	.	4a#	.	2cc#)	.	ii
.	.	4e	.	4g#	.	.	.	.
=9	=9	=9	=9	=9	=9	=9	=9	=9
!	!LO:DY:a	!	!	!	!	!	!	!
4D#	f f	4A#	.	4f##X	f	4dd#	f	V/vi
4d#	.	4f##X	.	4a#	.	4dd#	.	.
4d#	.	4f##	.	4a#	.	4dd#	.	.
4d#	.	4f##	.	4a#	.	4dd#	.	.
=10	=10	=10	=10	=10	=10	=10	=10	=10
4d#	.	4f##X	.	4a#	.	4dd#	.	.
4r	.	4D#	.	4d#	.	4r	.	.
2r	.	4D#	p	4d#	p	2r	.	.
.	.	4D#	.	4d#	.	.	.	.
=11	=11	=11	=11	=11	=11	=11	=11	=11
4B	p	4D#'	.	4d#'	.	4ff#'	p	I6
4r	.	4d#'	.	4f#'	.	4dd#'	.	.
2r	.	4d#'	.	4f#'	.	4b'	.	.
.	.	4B'	.	4d#'	.	4dd#'	.	.
=12	=12	=12	=12	=12	=12	=12	=12	=12
4B	.	4B	.	4d#	.	(2ff#	.	I
4r	.	4f#	.	4dd#	.	.	.	.
2r	.	4d#	.	4f#	.	2bb)	.	.
.	.	4B	.	4d#	.	.	.	.
=13	=13	=13	=13	=13	=13	=13	=13	=13
4F#	.	4c#	.	4e	.	4aa#'	.	V7
4r	.	4B	.	4d#	.	4bb'	.	.
2r	.	4A#	.	4c#	.	4ccc#'	.	.
.	.	4G#	.	4B	.	4ddd#'	.	.
=14	=14	=14	=14	=14	=14	=14	=14	=14
4F#	.	4F#	.	4A#	.	4eee	.	.
4F#	.	4f#	.	4a#	.	4r	.	.
4G#	.	4f#	.	4b	.	2r	.	.
4A#	.	4f#	.	4cc#	.	.	.	.
=15	=15	=15	=15	=15	=15	=15	=15	=15
4B	.	4f#	.	4dd#	.	4ddd#'	.	I
4B	.	4b	.	4dd#	.	4ccc#'	.	.
4c#	.	4b	.	4ee	.	4bb'	.	.
4d#	.	4f#	.	4ff#	.	4aa#'	.	.
=16	=16	=16	=16	=16	=16	=16	=16	=16
4e	.	4g#	.	4b	.	(2gg#	.	IV
4e	.	4g#	.	4cc#	.	.	.	.
4e	.	4g#	.	4cc#	.	2ccc#)	.	ii
4e	.	4g#	.	4cc#	.	.	.	.
=17	=17	=17	=17	=17	=17	=17	=17	=17
4d#	f	4f##X	f	4a#	f	4ddd#	f	V/vi
4d#	.	4f##	.	4a#	.	4ddd#	.	.
4d#	.	4f##	.	4a#	.	4ddd#	.	.
4d#	.	4f##	.	4a#	.	4ddd#	.	.
=18	=18	=18	=18	=18	=18	=18	=18	=18
4d#	.	4f##X	.	4a#	.	4ddd#	.	.
4r	.	4D#	.	4d#	.	4r	.	.
2r	.	4D#	p	4d#	p	2r	.	.
.	.	4D#	.	4d#	.	.	.	.
=19	=19	=19	=19	=19	=19	=19	=19	=19
!	!LO:DY:a	!	!	!	!	!	!	!
4d#	p	4D#'	.	4F##X'	.	4a#'	p	.
4r	.	4F##X'	.	4A#'	.	4f##X'	.	.
2r	.	4F##'	.	4A#'	.	4d#'	.	.
.	.	4D#'	.	4F##'	.	4f##'	.	.
=20!|:	=20!|:	=20!|:	=20!|:	=20!|:	=20!|:	=20!|:	=20!|:	=20!|:
4D#	.	4D#	.	4F##X	.	(2a#	.	.
4r	.	4F##X	.	4A#	.	.	.	.
2r	.	4F##	.	4A#	.	2dd#)	.	.
.	.	4D#	.	4F##	.	.	.	.
=21	=21	=21	=21	=21	=21	=21	=21	=21
!LO:TX:b:i:t=cresc.	!	!LO:TX:b:i:t=cresc.	!	!LO:TX:b:i:t=cresc.	!	!LO:TX:b:i:t=cresc.	!	!
4G#	.	4D#	.	4G#	.	4b'	.	vi64
4r	.	4G#	.	4B	.	4g#'	.	.
2r	.	4G#	.	4B	.	4d#'	.	.
.	.	4D#	.	4G#	.	4g#'	.	.
=22	=22	=22	=22	=22	=22	=22	=22	=22
4GG#	.	4E	.	4G#	.	(2b	.	IV6
4r	.	4G#	.	4B	.	.	.	.
2r	.	4G#	.	4B	.	2ee)	.	.
.	.	4E	.	4G#	.	.	.	.
=23	=23	=23	=23	=23	=23	=23	=23	=23
4C#	.	4F#	.	4c#	.	4cc#'	.	V
4r	.	4A#	.	4c#	.	4a#'	.	.
2r	.	4A#	.	4c#	.	4f#'	.	.
.	.	4F#	.	4A#	.	4a#'	.	.
=24	=24	=24	=24	=24	=24	=24	=24	=24
4AA#	.	4F#	.	4c#	.	(2cc#	.	V6
4r	.	4A#	.	4c#	.	.	.	.
2r	.	4A#	.	4c#	.	[2ff#)	.	.
.	.	4F#	.	4A# 4c#	.	.	.	.
=25	=25	=25	=25	=25	=25	=25	=25	=25
1r	.	1r	.	1r	.	4ff#]	.	.
.	.	.	.	.	.	(4cc#	.	.
.	.	.	.	.	.	[2ff#)	.	.
=26	=26	=26	=26	=26	=26	=26	=26	=26
1r	.	1r	.	4r	.	4ff#]	.	.
.	.	.	.	(4c#	.	4r	.	.
.	.	.	.	[2f#)	.	2r	.	.
=27	=27	=27	=27	=27	=27	=27	=27	=27
1r	.	4r	.	4f#]	.	1r	.	.
.	.	(4C#	.	4r	.	.	.	.
.	.	[2F#)	.	2r	.	.	.	.
=28	=28	=28	=28	=28	=28	=28	=28	=28
4r	.	4F#]	.	1r	.	1r	.	.
(4CC#	.	4r	.	.	.	.	.	.
[2FF#)	.	2r	.	.	.	.	.	.
=29	=29	=29	=29	=29	=29	=29	=29	=29
4FF#]	.	1r	.	1r	.	4r	.	i6
4r	.	.	.	.	.	(4dd	.	.
!	!	!	!	!	!	!LO:TX:b:i:t=dim.	!	!
2r	.	.	.	.	.	[2ff#)	.	.
=30	=30	=30	=30	=30	=30	=30	=30	=30
1r	.	1r	.	4r	.	4ff#]	.	.
.	.	.	.	(4d	.	4r	.	.
!	!	!	!	!LO:TX:b:i:t=dim.	!	!	!	!
.	.	.	.	[2f#)	.	2r	.	.
=31	=31	=31	=31	=31	=31	=31	=31	=31
1r	.	4r	.	4f#]	.	1r	.	.
.	.	(4D	.	4r	.	.	.	.
!	!	!LO:TX:b:i:t=dim.	!	!	!	!	!	!
.	.	[2F#)	.	2r	.	.	.	.
=32	=32	=32	=32	=32	=32	=32	=32	=32
4r	.	4F#]	.	1r	.	1r	.	.
(4DD	.	4r	.	.	.	.	.	.
[2FF#)	.	2r	.	.	.	.	.	.
=33	=33	=33	=33	=33	=33	=33	=33	=33
!	!	!	!	!	!	!LO:TX:a:i:t=Molto poco adagio.	!	!
4FF#]	.	1r	.	1r	.	4r	.	iii.i
4r	.	.	.	.	.	8r	.	.
.	.	.	.	.	.	(8dd#	.	.
!	!	!	!	!	!	!LO:TX:b:i:t=piu p	!	!
2r	.	.	.	.	.	4ff#)	.	.
.	.	.	.	.	.	[4ff#	.	.
=34	=34	=34	=34	=34	=34	=34	=34	=34
1r	.	1r	.	4r	.	4ff#]	.	.
.	.	.	.	8r	.	4r	.	.
.	.	.	.	(8d#	.	.	.	.
!	!	!	!	!LO:TX:b:i:t=piu p	!	!	!	!
.	.	.	.	4f#)	.	2r	.	.
.	.	.	.	[4f#	.	.	.	.
=35	=35	=35	=35	=35	=35	=35	=35	=35
1r	.	4r	.	4f#]	.	1r	.	.
.	.	8r	.	4r	.	.	.	.
.	.	(8D#	.	.	.	.	.	.
!	!	!LO:TX:b:i:t=piu p	!	!	!	!	!	!
.	.	4F#)	.	2r	.	.	.	.
.	.	[4F#	.	.	.	.	.	.
=36	=36	=36	=36	=36	=36	=36	=36	=36
!LO:TX:a:i:t=un poco più adagio	!	!	!	!	!	!	!	!
4r	.	4F#]	.	1r	.	1r	.	.
8r	.	4r	.	.	.	.	.	.
(8DD#	.	.	.	.	.	.	.	.
!LO:TX:b:i:t=piu p	!	!	!	!	!	!	!	!
4FF#)	.	2r	.	.	.	.	.	.
(4FF#	.	.	.	.	.	.	.	.
=37	=37	=37	=37	=37	=37	=37	=37	=37
!	!	!	!	!	!	!LO:TX:a:B:t=Tempo I.	!	!
4AA#)	pp	2r	.	1r	.	1r	.	.
4FF#'	.	.	.	.	.	.	.	.
4DD#'	.	4A#'	pp	.	.	.	.	.
4FF#'	.	4F#'	.	.	.	.	.	.
=38	=38	=38	=38	=38	=38	=38	=38	=38
!	!	!	!LO:DY:a	!	!	!	!	!
4AA#	.	4D#'	pp	4A#'	.	2r	.	i64
4r	.	4F#'	.	4F#'	.	.	.	.
!	!	!	!	!	!LO:DY:a	!	!	!
4D#	.	2r	.	4D#	pp	4A#'	.	.
4r	.	.	.	4F#'	.	4F#'	.	.
=39	=39	=39	=39	=39	=39	=39	=39	=39
4F#	.	4A#	.	2r	.	4D#'	.	i6
4r	.	4F#	.	.	.	4F#'	.	.
4A#	.	4D#	.	4A#	.	2r	.	.
4r	.	4F#	.	4F#	.	.	.	.
=40	=40	=40	=40	=40	=40	=40	=40	=40
4d#	.	2r	.	4D#	.	4A#	.	i
4r	.	.	.	4F#	.	4F#	.	.
4d#	.	4A#	.	2r	.	4D#	.	.
4r	.	4F#	.	.	.	4F#	.	.
=41	=41	=41	=41	=41	=41	=41	=41	=41
4d#	.	4D#	.	2r	.	4a#	.	.
4r	.	4F#	.	.	.	4f#	.	.
2r	.	4F#	.	4A#	.	4d#	.	.
.	.	4D#	.	4F#	.	4f#	.	.
=42	=42	=42	=42	=42	=42	=42	=42	=42
4d#	.	4d#	.	4f#	.	(2a#	.	.
4r	.	4f#	.	4a#	.	.	.	.
2r	.	4f#	.	4a#	.	2dd#)	.	i6
.	.	4f#	.	4a#	.	.	.	.
=43	=43	=43	=43	=43	=43	=43	=43	=43
4A#	.	4e#X	.	4g#	.	4cc##X	.	V7
4r	.	4d#	.	4f#	.	4dd#	.	i
2r	.	4A#	.	4c##X	.	4ee#X	.	V7
.	.	4A#	.	4d#	.	4ff#	.	V(64)
=44	=44	=44	=44	=44	=44	=44	=44	=44
!LO:TX:b:i:t=rit.	!	!LO:TX:b:i:t=rit.	!	!LO:TX:b:i:t=rit.	!	!LO:TX:b:i:t=rit.	!	!
4A#	.	4c##X	.	4e#X	.	4gg#	.	V7
4A#	.	4d#	.	4f#	.	4ff#	.	V(64)
4A#	.	4e#X	.	4cc##X	.	4ee#X	.	V7
4A#;	.	4e#;	.	4cc##;	.	4gg#;	.	.
=45	=45	=45	=45	=45	=45	=45	=45	=45
4B	f	4d#'	f	4dd#'	f	4ff#'	f	I.I
4r	.	4d#'	.	4f#'	.	4dd#'	.	.
2r	.	4d#'	.	4f#'	.	4b'	.	.
.	.	4B'	.	4d#'	.	4dd#'	.	.
=46	=46	=46	=46	=46	=46	=46	=46	=46
4B	.	4B	.	4d#	.	(2ff#	.	I
4r	.	4d#	.	4f#	.	.	.	.
2r	.	4d#	.	4f#	.	2bb)	.	.
.	.	4B	.	4d#	.	.	.	.
=47	=47	=47	=47	=47	=47	=47	=47	=47
4F#	.	4c#	.	4e	.	4aa#'	.	V7
4r	.	4B	.	4d#	.	4bb'	.	.
2r	.	4A#	.	4c#	.	4ccc#'	.	.
.	.	4G#	.	4B	.	4ddd#'	.	.
=48	=48	=48	=48	=48	=48	=48	=48	=48
4F#	.	4F#	.	4A#	.	4eee	.	.
4F#	.	4f#	.	4a#	.	4r	.	.
4G#	.	4f#	.	4b	.	2r	.	.
4A#	.	4f#	.	4cc#	.	.	.	.
=49	=49	=49	=49	=49	=49	=49	=49	=49
4B	.	4f#	.	4b	.	4ddd#'	.	I
4B	.	4d#	.	4b	.	4ccc#'	.	.
4c#	.	4e	.	4b	.	4bb'	.	.
4d#	.	4f#	.	4b	.	4aa#'	.	.
=50	=50	=50	=50	=50	=50	=50	=50	=50
4e	.	4g#	.	4b	.	(2gg#	.	IV
4E	.	4B	.	4g#	.	.	.	.
4E#X	.	4B	.	4g#	.	2ccc#)	.	V65/V
4r	.	4G#	.	4c#	.	.	.	.
=51	=51	=51	=51	=51	=51	=51	=51	=51
4F#	.	4A#	.	4c#	.	4aa#'	.	V
4r	.	4c#	.	4f#	.	4bb'	.	.
4C#	.	4c#	.	4e#X	.	4gg#'	.	V/V
4r	.	4c#	.	4e	.	4aa#'	.	V43
=52	=52	=52	=52	=52	=52	=52	=52	=52
4E	.	4A#	.	4c#	.	(2ff#	.	V2
4r	.	4A#	.	4c#	.	.	.	.
4D#	.	4F#	.	4B	.	2bb)	.	I6
4r	.	4d#	.	4f#	.	.	.	.
=53	=53	=53	=53	=53	=53	=53	=53	=53
4F#	.	4d#	.	4f#	.	4bb'	.	V(64)
4r	.	4c#	.	4ee	.	4aa#'	.	V7
4FF#	.	4c#	.	4ee	.	4gg#'	.	.
4r	.	4c#	.	4ee	.	4aa#'	.	.
=54	=54	=54	=54	=54	=54	=54	=54	=54
4BB	.	4F#	.	4dd#	.	4bb	.	I
*clefC4	*	*	*	*	*	*	*	*
4c#	.	4e	.	4f#	.	4a#	.	.
4B	p	4d#	p	4f#	p	4b	p	.
4A#	.	4c#	.	4f#	.	4cc#	.	.
=55	=55	=55	=55	=55	=55	=55	=55	=55
4B	.	4d#	.	4f#	.	(4dd#	.	I
4E	.	4F#	.	4f#	.	4cc#)	.	.
4D#	.	4F#	.	4f#	.	4b'	.	.
4r	.	4B	.	4f#	.	4a#'	.	.
=56	=56	=56	=56	=56	=56	=56	=56	=56
4E	.	4B	.	4e	.	(4g#	.	IV
4r	.	4G#	.	4c#	.	4a#)	.	.
4E#X	.	4G#	.	4c#	.	4b'	.	V65/V
4r	.	4c#	.	4g#	.	4cc#'	.	.
=57	=57	=57	=57	=57	=57	=57	=57	=57
!LO:TX:b:i:t=cresc.	!	!LO:TX:b:i:t=cresc.	!	!LO:TX:b:i:t=cresc.	!	!LO:TX:b:i:t=cresc.	!	!
4F#	.	4c#	.	4f#	.	(4a#	.	V
4r	.	4c#	.	4f#	.	4b)	.	.
4C#	.	4c#	.	4e#X	.	4g#'	.	V/V
4r	.	4c#	.	4e	.	4a#'	.	V43
=58	=58	=58	=58	=58	=58	=58	=58	=58
4E	.	4A#	.	4c#	.	(4f#	.	V2
4r	.	4A#	.	4c#	.	4g#)	.	.
4D#	.	4F#	.	4c#	.	4a#'	.	I6
4r	.	4D#	.	4d#	.	4b'	.	.
=59	=59	=59	=59	=59	=59	=59	=59	=59
4F#	.	4D#	.	4F#	.	(4b	.	V7
4FF#	.	4C#	.	4E	.	4a#)	.	.
4FF#	.	4C#	.	4e	.	4g#'	.	.
4FF#	.	4c#	.	4e	.	4a#'	.	.
=60	=60	=60	=60	=60	=60	=60	=60	=60
4D#	.	4F#	.	4B	.	(4cc#	.	I6
4DD#	.	4D#	.	4F#	.	4b)	.	.
4DD#	.	4d#	.	4f#	.	4a#'	.	.
4DD#	.	4d#	.	4f#	.	4b'	.	.
=61	=61	=61	=61	=61	=61	=61	=61	=61
4AA#	f	4c#	f	4f#	f	(4dd#	f	V65
4AAA#	.	4F#	.	4f#	.	4cc#)	.	.
4AAA#	.	4F#	.	4f#	.	4cc'	.	.
4AAA#	.	4F#	.	4f#	.	4cc#X'	.	.
=62	=62	=62	=62	=62	=62	=62	=62	=62
4BB	sf	4F#	sf	4f#	sf	(4ee	sf	I
4BBB	.	4F#	.	4f#	.	4dd#)	.	.
4BBB	.	4F#	.	4f#	.	4cc#'	.	.
4BBB	.	4F#	.	4f#	.	4dd#'	.	.
=63	=63	=63	=63	=63	=63	=63	=63	=63
4G#	f	4B	f	4e	f	(4ff#	f	IV6
4GG#	.	4G# 4B	.	4g# 4b	.	4ee)	.	.
4GG#	.	4G# 4B	.	4g# 4b	.	4dd#'	.	.
4GG#	.	4G# 4B	.	4g# 4b	.	4ee'	.	.
=64	=64	=64	=64	=64	=64	=64	=64	=64
!	!LO:DY:a	!	!	!	!	!	!	!
4D#	f f	4F# 4B	.	4f# 4b	f	(4gg#	f	I6
4DD#	.	4F# 4B	.	4f# 4b	.	4ff#)	.	.
4DD#	.	4F# 4B	.	4f# 4b	.	4ee#X'	.	.
4DD#	.	4F# 4B	.	4f# 4b	.	4ff#'	.	.
=65	=65	=65	=65	=65	=65	=65	=65	=65
4EE	f	4G# 4B	f	4g# 4b	f	(4aa	f	IV(4)
4EE#X	.	4G# 4c#	.	4g# 4b	.	4gg#)	.	V65/V
4FF#	.	4F# 4d#	.	4f# 4b	.	4bb'	.	V(64)
4FF#	.	4F# 4e	.	4c# 4a#	.	4aa#X'	.	V7
=66	=66	=66	=66	=66	=66	=66	=66	=66
4BB	.	4F# 4d#	p	4B 4b	p	4bb	.	I\\
2r	.	4D#'	.	4d#'	.	4r	.	.
.	.	4D#'	.	4d#'	.	2r	.	V/vi
4d#	.	4F##X'	.	4A#'	.	.	.	.
=67	=67	=67	=67	=67	=67	=67	=67	=67
!	!LO:DY:a	!	!	!	!	!	!	!
4d#	p	4D#'	.	4F##X'	.	4a#'	.	.
!	!	!	!	!	!LO:DY:a	!	!	!
4r	.	4F##X'	.	4A#'	p	4f##X'	.	.
2r	.	4F##'	.	4A#'	.	4d#'	.	.
.	.	4D#'	.	4F##'	.	4f##'	.	.
=68:|!	=68:|!	=68:|!	=68:|!	=68:|!	=68:|!	=68:|!	=68:|!	=68:|!
4BB	.	4F# 4d#	.	4B 4b	.	4bb	.	I\\
4r	.	4r	.	2r	.	4bb	.	.
!	!	!	!	!	!	!	!LO:DY:a	!
2r	.	2r	.	.	.	4ff#	p	.
.	.	.	.	4ff#	p	4r	.	.
=69	=69	=69	=69	=69	=69	=69	=69	=69
2r	.	4r	.	4b	.	1r	.	.
.	.	4B	.	4r	.	.	.	.
4r	.	4F#	p	2r	.	.	.	.
4F#	p	4r	.	.	.	.	.	.
=70	=70	=70	=70	=70	=70	=70	=70	=70
4BB	.	4r	.	4r	.	2r	.	.
2r	.	4B	.	4d#	.	.	.	.
.	.	4F#	.	4B	.	4r	.	.
4F#	.	4r	.	4r	.	4dd#	p	.
=71	=71	=71	=71	=71	=71	=71	=71	=71
!	!	!	!	!LO:TX:b:i:t=piacevole	!	!LO:TX:b:i:t=piacevole	!	!
4BB	.	4r	.	(2D#	.	(2d#	.	I
2r	.	4B	.	.	.	.	.	.
.	.	4F#	.	2E	.	2e	.	V7
4F#	.	4r	.	.	.	.	.	.
=72	=72	=72	=72	=72	=72	=72	=72	=72
4BB	.	4r	.	2F#	.	2f#	.	I
2r	.	4B	.	.	.	.	.	.
.	.	4F#	.	2B)	.	2b)	.	I64
4F#	.	4r	.	.	.	.	.	.
=73	=73	=73	=73	=73	=73	=73	=73	=73
4BB	.	4r	.	(4c#	.	(4cc#	.	I
2r	.	4B	.	4d#	.	4dd#	.	.
.	.	4F#	.	4e	.	4ee	.	V7
4F#	.	4r	.	4c#	.	4cc#	.	.
=74	=74	=74	=74	=74	=74	=74	=74	=74
4BB	.	4r	.	2f#	.	2ff#	.	I
2r	.	4B	.	.	.	.	.	.
.	.	4F#	.	4b)	.	4bb)	.	I64
4F#	.	4r	.	4r	.	4r	.	.
=75	=75	=75	=75	=75	=75	=75	=75	=75
4BB	.	4r	.	(2D#	.	(2d#	.	I
2r	.	4B	.	.	.	.	.	.
.	.	4F#	.	2E	.	2e	.	V7
4F#	.	4r	.	.	.	.	.	.
=76	=76	=76	=76	=76	=76	=76	=76	=76
4BB	.	4r	.	2F#	.	2f#	.	I
2r	.	4B	.	.	.	.	.	.
.	.	4F#	.	2B)	.	2b)	.	I64
4F#	.	4r	.	.	.	.	.	.
=77	=77	=77	=77	=77	=77	=77	=77	=77
4BB	.	4r	.	(4c#	.	(4cc#	.	I
2r	.	4B	.	4d#	.	4dd#	.	.
.	.	4F#	.	4e	.	4ee	.	V7
4F#	.	4r	.	4c#	.	4cc#	.	.
=78	=78	=78	=78	=78	=78	=78	=78	=78
4BB	.	4r	.	4B)	.	4b)	.	I\\
2r	.	4B	.	4r	.	4r	.	.
.	.	4F#	.	2r	.	2r	.	.
4FF#	.	4F#	.	.	.	.	.	.
=79	=79	=79	=79	=79	=79	=79	=79	=79
!	!	!	!	!	!	!LO:TX:a:t=1	!	!
4BBB	.	4BB	.	(2D#	.	(2d#	.	I
4BB	.	4B	.	.	.	.	.	.
4FF#	.	4F#	.	2E	.	2e	.	V7
4FF#	.	4F#	.	.	.	.	.	.
=80	=80	=80	=80	=80	=80	=80	=80	=80
4BBB	.	4BB	.	2F#	.	2f#	.	I
4BB	.	4B	.	.	.	.	.	.
4FF#	.	4F#	.	2B)	.	2b)	.	I64
4FF#	.	4F#	.	.	.	.	.	.
=81	=81	=81	=81	=81	=81	=81	=81	=81
4BBB	.	4BB	.	(4c#	.	(4cc#	.	I
4BB	.	4B	.	4d#	.	4dd#	.	.
4FF#	.	4F#	.	4e	.	4ee	.	V7
4FF#	.	4F#	.	4c#	.	4cc#	.	.
=82	=82	=82	=82	=82	=82	=82	=82	=82
4BBB	.	4BB	.	2f#	.	2ff#	.	I
4BB	.	4B	.	.	.	.	.	.
4FF#	.	4F#	.	4b)	.	4bb)	.	I64
4FF#	.	4F#	.	4r	.	4r	.	.
=83	=83	=83	=83	=83	=83	=83	=83	=83
4BBB	.	4BB	.	(2D#	.	(2d#	.	I
4BB	.	4B	.	.	.	.	.	.
4FF#	.	4F#	.	2E	.	2e	.	V7
4FF#	.	4F#	.	.	.	.	.	.
=84	=84	=84	=84	=84	=84	=84	=84	=84
4BBB	.	4BB	.	2F#	.	2f#	.	I
4BB	.	4B	.	.	.	.	.	.
4FF#	.	4F#	.	2B)	.	2b)	.	I64
4FF#	.	4F#	.	.	.	.	.	.
=85	=85	=85	=85	=85	=85	=85	=85	=85
4BBB	.	4BB	.	(4c#	.	(4cc#	.	I
4BB	.	4B	.	4d#	.	4dd#	.	.
4FF#	.	4F#	.	4e	.	4ee	.	V7
4FF#	.	4F#	.	4c#	.	4cc#	.	.
=86	=86	=86	=86	=86	=86	=86	=86	=86
4BBB	.	4BB	.	4B)	.	4b)	.	I\\
2r	.	2r	.	4B'	.	4b'	.	.
.	.	.	.	4F#'	.	4f#'	.	.
4FF#'	.	4F#'	.	4r	.	4r	.	@none
=87	=87	=87	=87	=87	=87	=87	=87	=87
4BBB'	.	4BB'	.	1r	.	1r	.	.
4D#	.	2r	.	.	.	.	.	.
4AA#	pp	.	.	.	.	.	.	.
4r	.	4C#	pp	.	.	.	.	.
=88	=88	=88	=88	=88	=88	=88	=88	=88
4r	.	4BB	.	1r	.	1r	.	.
4C#	.	2r	.	.	.	.	.	.
4GG#	.	.	.	.	.	.	.	.
4r	.	4BB	.	.	.	.	.	.
=89	=89	=89	=89	=89	=89	=89	=89	=89
4r	.	4AA#	.	1r	.	1r	.	.
4BB	.	2r	.	.	.	.	.	.
4FF#	.	.	.	.	.	.	.	.
4r	.	4AA#	.	.	.	.	.	.
=90	=90	=90	=90	=90	=90	=90	=90	=90
4r	.	4GG#	.	1r	.	1r	.	.
4AA#	.	2r	.	.	.	.	.	.
4EE#X	.	.	.	.	.	.	.	.
4r	.	4G#	.	.	.	.	.	.
=91	=91	=91	=91	=91	=91	=91	=91	=91
1r	.	4F#	.	2r	.	4r	pp	.
.	.	4r	.	.	.	4gg#	.	.
.	.	2r	.	4r	pp	4dd#	.	.
.	.	.	.	4ff#	.	4r	.	.
=92	=92	=92	=92	=92	=92	=92	=92	=92
1r	.	1r	.	4ee	.	4r	.	.
.	.	.	.	2r	.	4ff#	.	.
.	.	.	.	.	.	4cc#	.	.
.	.	.	.	4ee	.	4r	.	.
=93	=93	=93	=93	=93	=93	=93	=93	=93
1r	.	1r	.	4dd#	.	4r	.	.
.	.	.	.	2r	.	4ee	.	.
.	.	.	.	.	.	4b	.	.
.	.	.	.	4dd#	.	4r	.	.
=94	=94	=94	=94	=94	=94	=94	=94	=94
1r	.	1r	.	4cc#	.	4r	.	.
.	.	.	.	2r	.	4dd#	.	.
.	.	.	.	.	.	4a#	.	.
.	.	.	.	4cc#	.	4r	.	.
=95	=95	=95	=95	=95	=95	=95	=95	=95
!LO:TX:b:i:t=cresc.	!	!LO:TX:b:i:t=cresc.	!	!LO:TX:b:i:t=cresc.	!	!	!	!
(2DD#	.	(2D#	.	4b	.	4r	.	I6
.	.	.	.	2r	.	4bb	.	.
!	!	!	!	!	!	!LO:TX:b:i:t=cresc.	!	!
2EE	.	2E	.	.	.	4ff#	.	V2
.	.	.	.	4ff#	.	4r	.	.
=96	=96	=96	=96	=96	=96	=96	=96	=96
2FF#	.	2F#	.	4b	.	4r	.	I64
.	.	.	.	2r	.	4bb	.	.
2BB)	.	2B)	.	.	.	4ff#	.	I
.	.	.	.	4ff#	.	4r	.	.
=97	=97	=97	=97	=97	=97	=97	=97	=97
(4C#	p	(4c#	p	4b	p	4r	.	I6
4D#	.	4d#	.	2r	.	4bb	.	.
4E	.	4e	.	.	.	4ff#	p	V43
4C#	.	4c#	.	4ff#	.	4r	.	.
=98	=98	=98	=98	=98	=98	=98	=98	=98
2F#	.	2f#	.	4b	.	4r	.	I64
.	.	.	.	2r	.	4bb	.	.
4B)	.	4b)	.	.	.	4ff#	.	I
4r	.	4r	.	4ff#	.	4r	.	.
=99	=99	=99	=99	=99	=99	=99	=99	=99
!LO:TX:b:i:t=cresc.	!	!LO:TX:b:i:t=cresc.	!	!LO:TX:b:i:t=cresc.	!	!	!	!
(2DD#	.	(2D#	.	4b	.	4r	.	I6
.	.	.	.	2r	.	4bb	.	.
!	!	!	!	!	!	!LO:TX:b:i:t=cresc.	!	!
2EE	.	2E	.	.	.	4ff#	.	V2
.	.	.	.	4ff#	.	4r	.	.
=100	=100	=100	=100	=100	=100	=100	=100	=100
2FF#	.	2F#	.	4b	.	4r	.	I64
.	.	.	.	2r	.	4bb	.	.
2BB)	.	2B)	.	.	.	4ff#	.	I
.	.	.	.	4ff#	.	4r	.	.
=101	=101	=101	=101	=101	=101	=101	=101	=101
(4C#	p	(4c#	p	4b	p	4r	p	I6
4D#	.	4d#	.	2r	.	4bb	.	.
4E	.	4e	.	.	.	4ff#	.	V43
4C#	.	4c#	.	4ff#	.	4r	.	.
=102	=102	=102	=102	=102	=102	=102	=102	=102
4BB)	.	4B)	.	4dd#	.	4r	.	I64
4r	.	4r	.	2r	.	4bb	.	.
2r	.	2r	.	.	.	4ff#	.	I
.	.	.	.	4f#	.	4ff#	.	.
=103	=103	=103	=103	=103	=103	=103	=103	=103
!LO:TX:b:i:t=cresc.	!	!LO:TX:b:i:t=cresc.	!	!LO:TX:b:i:t=cresc.	!	!LO:TX:b:i:t=cresc.	!	!
(2DD#	.	(2D#	.	4B	.	4b	.	I6
.	.	.	.	4b	.	4bb	.	.
2EE	.	2E	.	4f#	.	4ff#	.	V2
.	.	.	.	4f#	.	4ff#	.	.
=104	=104	=104	=104	=104	=104	=104	=104	=104
2FF#	.	2F#	.	4B	.	4b	.	I64
.	.	.	.	4b	.	4bb	.	.
2BB)	.	2B)	.	4f#	.	4ff#	.	I
.	.	.	.	4f#	.	4ff#	.	.
=105	=105	=105	=105	=105	=105	=105	=105	=105
(4C#	p	(4c#	p	4B	p	4b	p	I6
4D#	.	4d#	.	4b	.	4bb	.	.
4E	.	4e	.	4f#	.	4ff#	.	V43
4C#	.	4c#	.	4f#	.	4ff#	.	.
=106	=106	=106	=106	=106	=106	=106	=106	=106
2F#	.	2f#	.	4B	.	4b	.	I64
.	.	.	.	4b	.	4bb	.	.
4B)	.	4b)	.	4f#	.	4ff#	.	I
4r	.	4r	.	4f#	.	4ff#	.	.
=107	=107	=107	=107	=107	=107	=107	=107	=107
!LO:TX:b:i:t=cresc.	!	!LO:TX:b:i:t=cresc.	!	!LO:TX:b:i:t=cresc.	!	!LO:TX:b:i:t=cresc.	!	!
(2DD#	.	(2D#	.	4B	.	4b	.	I6
.	.	.	.	4b	.	4bb	.	.
2EE	.	2E	.	4f#	.	4ff#	.	V2
.	.	.	.	4f#	.	4ff#	.	.
=108	=108	=108	=108	=108	=108	=108	=108	=108
2FF#	.	2F#	.	4B	.	4b	.	I64
.	.	.	.	4b	.	4bb	.	.
2BB)	.	2B)	.	4f#	.	4ff#	.	I
.	.	.	.	4f#	.	4ff#	.	.
=109	=109	=109	=109	=109	=109	=109	=109	=109
(4C#	p	(4c#	p	4B	p	4b	p	I6
4D#	.	4d#	.	4b	.	4bb	.	.
4E	.	4e	.	4f#	.	4ff#	.	V43
4C#	.	4c#	.	4f#	.	4ff#	.	.
=110	=110	=110	=110	=110	=110	=110	=110	=110
4BB	.	4B	.	4f#	.	4ff#	.	I
4C#	.	4c#	.	4b	.	4bb	.	.
4D#	.	4d#	.	4f#	.	4ff#	.	I6
4BB)	.	4B)	.	4f#	.	4ff#	.	.
=111	=111	=111	=111	=111	=111	=111	=111	=111
!	!	!	!	!	!	!LO:TX:b:i:t=Ritmo di quattro battute	!	!
(4C#	.	(4c#	.	4f#	.	4ff#	.	I6
4D#	.	4d#	.	4b	.	4bb	.	.
4E	.	4e	.	4f#	.	4ff#	.	V43
4C#	.	4c#	.	4f#	.	4ff#	.	.
=112	=112	=112	=112	=112	=112	=112	=112	=112
!LO:TX:b:i:t=cresc.	!	!LO:TX:b:i:t=cresc.	!	!LO:TX:b:i:t=cresc.	!	!LO:TX:b:i:t=cresc.	!	!
2BB	.	2B	.	(4f#	.	(4ff#	.	I
.	.	.	.	4b)	.	4bb	.	.
2EE	.	2E	.	(2E	.	2e	.	IV.I
=113||	=113||	=113||	=113||	=113||	=113||	=113||	=113||	=113||
*k[f#c#g#d#]	*	*k[f#c#g#d#]	*	*k[f#c#g#d#]	*	*k[f#c#g#d#]	*	*
*E:	*	*E:	*	*E:	*	*E:	*	*
2GG#	.	2GG#	.	2G#	.	2g#	.	.
2BBB	.	2BB	.	2B	.	2b	.	.
=114	=114	=114	=114	=114	=114	=114	=114	=114
2CC#	.	2C#	.	2c#	.	2cc#	.	.
2BBB)	.	2BB)	.	2B)	.	2b)	.	.
=115	=115	=115	=115	=115	=115	=115	=115	=115
(4CC#	.	(4C#	.	(4c#	.	(4cc#	.	.
4DD#	.	4D#	.	4d#	.	4dd#	.	.
4EE	.	4E	.	4e	.	4ee	.	.
4FF#	.	4F#	.	4f#	.	4ff#	.	.
=116	=116	=116	=116	=116	=116	=116	=116	=116
2GG#	>	2G#	>	2g#	>	2gg#	>	.
2EE	]]	2E	]]	2e	]]	2ee	]]	.
=117	=117	=117	=117	=117	=117	=117	=117	=117
2FF#	p	2F#	p	2f#	p	2ff#	p	V
2BB	.	2B	.	2b	.	2bb	.	.
=118	=118	=118	=118	=118	=118	=118	=118	=118
2AA	.	2A	.	2a	.	2aa	.	.
2GG#)	.	2G#)	.	2g#)	.	2gg#)	.	.
=119	=119	=119	=119	=119	=119	=119	=119	=119
!	!	!	!	!	!	!LO:TX:b:i:t=Ritmo di quattro battute	!	!
!LO:TX:b:i:t=cresc.	!	!LO:TX:b:i:t=cresc.	!	!LO:TX:b:i:t=cresc.	!	!LO:TX:b:i:t=cresc.	!	!
(4CC#	.	(4C#	.	(4c#	.	(4cc#	.	vi
4DD#	.	4D#	.	4d#	.	4dd#	.	.
4EE	.	4E	.	4e	.	4ee	.	.
4CC#	.	4C#	.	4c#	.	4cc#	.	.
=120	=120	=120	=120	=120	=120	=120	=120	=120
2BBB	.	1BB	.	4B)	.	2b	.	V7
.	.	.	.	4A	.	.	.	.
2EE	.	.	.	4G#	.	2e	.	I
.	.	.	.	4g#	.	.	.	.
=121	=121	=121	=121	=121	=121	=121	=121	=121
2BBB	.	2GG#	.	4r	.	2g#	.	I64
.	.	.	.	4f#	.	.	.	.
2GGG#	.	[2E	.	4e	.	2b	.	I6
.	.	.	.	4ee	.	.	.	.
=122	=122	=122	=122	=122	=122	=122	=122	=122
2AAA	.	2E])	.	4r	.	2cc#	.	IV
.	.	.	.	4a	.	.	.	.
2GGG#)	.	(2E	.	4e	.	2b)	.	I6
.	.	.	.	4ee	.	.	.	.
=123	=123	=123	=123	=123	=123	=123	=123	=123
(4AAA	.	4D#	.	4r	.	(4cc#	.	V2
4BBB	.	4C#	.	4A	.	4dd#	.	.
4CC#	.	4BB	.	4E	.	4ee	.	V65
4DD#	.	4AA	.	4a	.	4ff#	.	.
=124	=124	=124	=124	=124	=124	=124	=124	=124
2EE	>	2GG#	>	4r	>	2gg#	>	I
.	.	.	.	4A	.	.	.	.
2CC#	]]	2E	]]	4G#	.	2ee	]]	vi
.	.	.	.	4g#	]]	.	.	.
=125	=125	=125	=125	=125	=125	=125	=125	=125
2DD#	p	2F#	p	4r	.	2ff#	p	V65
.	.	.	.	4c#	.	.	.	.
2BBB	.	2D#	.	4B	p	2bb	.	V
.	.	.	.	4b	.	.	.	.
=126	=126	=126	=126	=126	=126	=126	=126	=126
2DD#	.	2F#	.	4r	.	2aa	.	V65
.	.	.	.	4f#	.	.	.	.
[2EE)	.	2G#)	.	4e	.	2gg#)	.	I[I
.	.	.	.	4b	.	.	.	.
=127	=127	=127	=127	=127	=127	=127	=127	=127
!LO:TX:b:i:t=cresc.	!	!LO:TX:b:i:t=cresc.	!	!LO:TX:b:i:t=cresc.	!	!LO:TX:b:i:t=cresc.	!	!
1EE_	.	4A	.	4r	.	(2ff#	.	iio6
.	.	4a	.	4cc	.	.	.	.
.	.	4g#	.	4b	.	2gg#	.	I
.	.	4B	.	4g#	.	.	.	.
=128	=128	=128	=128	=128	=128	=128	=128	=128
2EE]	.	4F#	.	4r	.	2aa	.	V43
.	.	4r	.	4d#	.	.	.	.
[2EE	.	4G#	.	4e	.	2gg#	.	I
.	.	4g#	.	4B	.	.	.	.
=129	=129	=129	=129	=129	=129	=129	=129	=129
1EE_	.	4d# 4f#	.	4r	.	2aa	.	V65
.	.	4r	.	4f#	.	.	.	.
.	.	4G#	.	4e	.	2bb	.	I
.	.	4E	.	4G#	.	.	.	.
=130	=130	=130	=130	=130	=130	=130	=130	=130
(2EE]	>	4AA#X	>	4r	>	2ccc#	>	#viio2/iii]
.	.	4A#X	.	4F##X	.	.	.	.
2GGG#)	]]	4B	.	4e	.	2bb)	]]	I6
.	.	4b	]]	4E	]]	.	.	.
=131	=131	=131	=131	=131	=131	=131	=131	=131
(2AAA	p	4C#	p	4r	p	(2ff#	p	ii6
.	.	4r	.	4c#	.	.	.	.
!LO:TX:b:i:t=cresc.	!	!LO:TX:b:i:t=cresc.	!	!LO:TX:b:i:t=cresc.	!	!LO:TX:b:i:t=cresc.	!	!
2GGG#	.	4BB#X	.	4d#	.	2gg#	.	V/vi
.	.	4B#X	.	4dd#	.	.	.	.
=132	=132	=132	=132	=132	=132	=132	=132	=132
2AAA	.	4BB#X	.	4r	.	2ff#	.	#viio65
.	.	4r	.	4d#	.	.	.	.
2AAA#X	.	4C#	.	4c#	.	2ee)	.	#viio7/V
.	.	4G	.	4cc#	.	.	.	.
=133	=133	=133	=133	=133	=133	=133	=133	=133
2BBB	p	4E	p	4r	.	(2b	p	V(64)
.	.	4r	.	4c#	.	.	.	.
2BB	.	4D#	.	4B	p	2ff#	.	V
.	.	4d#	.	4b	.	.	.	.
=134	=134	=134	=134	=134	=134	=134	=134	=134
2EE)	.	4BB	.	4r	.	2gg#	.	I[I
.	.	4r	.	4c#	.	.	.	.
[2EE	.	4G#	.	4B	.	2ee)	.	I
.	.	4g#	.	4b	.	.	.	.
=135	=135	=135	=135	=135	=135	=135	=135	=135
!LO:TX:b:i:t=cresc.	!	!LO:TX:b:i:t=cresc.	!	!	!	!LO:TX:b:i:t=cresc.	!	!
1EE_	.	4D#	.	4r	.	(2ff#	.	iio6
.	.	4c	.	4D# 4A	.	.	.	.
!	!	!	!	!LO:TX:b:i:t=cresc.	!	!	!	!
.	.	4B	.	4G#	.	2gg#	.	I
.	.	4E	.	4g#	.	.	.	.
=136	=136	=136	=136	=136	=136	=136	=136	=136
2EE]	.	4D# 4F#	.	4r	.	2aa	.	#viio
.	.	4d#	.	4cc	.	.	.	.
[2EE	.	4e	.	4b	.	2gg#	.	I
.	.	4b	.	4g#	.	.	.	.
=137	=137	=137	=137	=137	=137	=137	=137	=137
1EE_	.	4d# 4f#	.	4r	.	2aa	.	V65
.	.	4r	.	4F#	.	.	.	.
.	.	4GG#	.	4E	.	2bb	.	I
.	.	4G#	.	4e	.	.	.	.
=138	=138	=138	=138	=138	=138	=138	=138	=138
2EE]	>	4G	>	4A#X	>	2ccc#	>	#viio2/V]
.	.	4G	.	4a#X	.	.	.	.
(2GGG#	]]	4E	.	4b	.	2bb)	]]	I6
.	.	4e	]]	4B	]]	.	.	.
=139	=139	=139	=139	=139	=139	=139	=139	=139
!LO:TX:b:i:t=cresc.	!	!	!	!	!	!	!	!
2AAA	p	4C#	p	4r	p	(2ff#	p	ii6
.	.	4r	.	4c#	.	.	.	.
!	!	!LO:TX:b:i:t=cresc.	!	!LO:TX:b:i:t=cresc.	!	!LO:TX:b:i:t=cresc.	!	!
2GGG#	.	4D#	.	4B#X	.	2gg#	.	V/vi
.	.	4d#	.	4b#X	.	.	.	.
=140	=140	=140	=140	=140	=140	=140	=140	=140
2AAA	.	4C#	.	4r	.	2ff#	.	ii6
.	.	4r	.	4c#	.	.	.	.
2AAA#X	.	4c#	.	4F#	.	2ee	.	V65/V
.	.	4F#	.	4f#	.	.	.	.
=141	=141	=141	=141	=141	=141	=141	=141	=141
2BBB	p	4GG# 4E	p	4r	p	2b	p	V(64)
.	.	4e	.	4G#	.	.	.	.
2DD#	.	4B	.	4F#	.	2ff#	.	V65
.	.	4a	.	4f#	.	.	.	.
=142	=142	=142	=142	=142	=142	=142	=142	=142
2EE	.	4B	.	4r	.	2gg#	.	I
.	.	4F#	.	4A	.	.	.	.
2GG#)	.	4GG#	.	4B	.	2ee)	.	I6
.	.	4G#	.	4b	.	.	.	.
=143	=143	=143	=143	=143	=143	=143	=143	=143
(2BB	.	4F#	.	4r	.	4aa'	.	V7
.	.	2r	.	4cc#	.	4ff#'	.	.
2D#	.	.	.	4b	.	2ff#	.	V65
.	.	4A	.	4r	.	.	.	.
=144	=144	=144	=144	=144	=144	=144	=144	=144
2BB	.	4G#	.	4r	.	4bb'	.	I64
.	.	2r	.	4c#	.	4gg#'	.	.
2E)	.	.	.	4B	.	2gg#	.	I
.	.	4g#	.	4r	.	.	.	.
=145	=145	=145	=145	=145	=145	=145	=145	=145
(2BB	.	4d#	.	4r	.	4aa	.	V7
.	.	2r	.	4cc#	.	4ff#	.	.
2A)	.	.	.	4b	.	4ff#	.	V2
.	.	4d#	.	4r	.	4ff#	.	.
=146	=146	=146	=146	=146	=146	=146	=146	=146
(2BB	.	4G#	.	4r	.	4bb	.	I64
.	.	2r	.	4c#	.	4eee	.	.
2G#)	.	.	.	4B	.	2eee	.	I6
.	.	4b	.	4r	.	.	.	.
=147	=147	=147	=147	=147	=147	=147	=147	=147
(2BB	.	4d#	.	4r	.	4aa	.	V7
.	.	2r	.	4cc#	.	4ff#	.	.
2D#	.	.	.	4b	.	2ff#	.	V65
.	.	4A	.	4r	.	.	.	.
=148	=148	=148	=148	=148	=148	=148	=148	=148
2BB	.	4G#	.	4r	.	4bb	.	I64
.	.	2r	.	4c#	.	4gg#	.	.
2E)	.	.	.	4B	.	2gg#	.	I
.	.	4g#	.	4r	.	.	.	.
=149	=149	=149	=149	=149	=149	=149	=149	=149
(2BB	.	4d#	.	4r	.	4aa	.	V7
.	.	2r	.	4cc#	.	4ff#	.	.
2A)	.	.	.	4b	.	4ff#	.	V2
.	.	4d#	.	4r	.	4ff#	.	.
=150	=150	=150	=150	=150	=150	=150	=150	=150
(2BB	.	4e	.	4r	.	4gg#	.	I64
.	.	2r	.	4c#	.	4ee	.	.
2G#)	.	.	.	4B	.	2ee	.	I6
.	.	4BB	.	4B	.	.	.	.
=151	=151	=151	=151	=151	=151	=151	=151	=151
!LO:TX:b:i:t=cresc.	!	!LO:TX:b:i:t=cresc.	!	!	!	!	!	!
4AA	.	(2D#	.	1r	.	2r	.	V2
4FF#	.	.	.	.	.	.	.	.
!	!	!	!	!	!	!LO:TX:b:i:t=cresc.	!	!
2FF#	.	2B)	.	.	.	4aa	.	V43
.	.	.	.	.	.	4ff#	.	.
=152	=152	=152	=152	=152	=152	=152	=152	=152
!	!	!	!	!LO:TX:b:i:t=cresc.	!	!	!	!
4BB	.	1r	.	(2G#	.	2r	.	I64
4GG#	.	.	.	.	.	.	.	.
2GG#	.	.	.	2e)	.	4bb	.	I6
.	.	.	.	.	.	4gg#	.	.
=153	=153	=153	=153	=153	=153	=153	=153	=153
4AA	.	(2B	.	1r	.	2r	.	V2
4FF#	.	.	.	.	.	.	.	.
4FF#	.	2a)	.	.	.	4aa	.	V43
4FF#	.	.	.	.	.	4ff#	.	.
=154	=154	=154	=154	=154	=154	=154	=154	=154
4BB	.	2r	.	(2g#	.	2r	.	I64
4E	.	.	.	.	.	.	.	.
2E	.	(2G#	.	2ee)	.	4bb	.	I
.	.	.	.	.	.	4eee	.	.
=155	=155	=155	=155	=155	=155	=155	=155	=155
4EE	.	2AA#X	.	1r	.	2r	.	V2/V
4CC#	.	.	.	.	.	.	.	.
2CC#	.	2F#)	.	.	.	4ee	.	V43/V
.	.	.	.	.	.	4cc#	.	.
=156	=156	=156	=156	=156	=156	=156	=156	=156
4FF#	.	1r	.	(2D#	.	2r	.	V64
4DD#	.	.	.	.	.	.	.	.
2DD#	.	.	.	2B)	.	4ff#	.	V6
.	.	.	.	.	.	4dd#	.	.
=157	=157	=157	=157	=157	=157	=157	=157	=157
4EE	.	(2A#X	.	1r	.	2r	.	V2/V
4CC#	.	.	.	.	.	.	.	.
4CC#	.	2f#)	.	.	.	4ee	.	V43/V
4CC#	.	.	.	.	.	4cc#	.	.
=158	=158	=158	=158	=158	=158	=158	=158	=158
4FF#	.	2r	.	(2d#	.	2r	.	V64
4BB	.	.	.	.	.	.	.	.
2BB	.	(2d#	.	2b)	.	4ff#	.	V
.	.	.	.	.	.	4bb	.	.
=159	=159	=159	=159	=159	=159	=159	=159	=159
4EE	f	2A#X	f	1r	.	2r	.	V2/V
4CC#	.	.	.	.	.	.	.	.
4CC#	.	2f#)	.	.	.	4ee	f	V43/V
4CC#	.	.	.	.	.	4cc#	.	.
=160	=160	=160	=160	=160	=160	=160	=160	=160
!LO:TX:b:i:t=più	!	!LO:TX:b:i:t=più	!	!LO:TX:b:i:t=più	!	!LO:TX:b:i:t=più	!	!
4FF#	f	2r	.	(2d#	f	2r	.	V64
4BB	.	.	.	.	.	.	.	.
2BB	.	(2d#	f	2b)	f	4ff#	f	V
.	.	.	.	.	.	4bb	.	.
=161	=161	=161	=161	=161	=161	=161	=161	=161
4EE	ff	2A#X	.	(2f#	.	2r	.	I.V2
4CC#	.	.	.	.	.	.	.	.
4CC#	.	2f#)	ff	2ee)	ff	4ee	ff	V43
4CC#	.	.	.	.	.	4cc#	.	.
=162	=162	=162	=162	=162	=162	=162	=162	=162
1r	.	1r	.	1r	.	1r	.	.
=163	=163	=163	=163	=163	=163	=163	=163	=163
!	!	!	!	!LO:TX:a:t=pizz.	!	!	!	!
1r	.	1r	.	4e	.	1r	.	.
.	.	.	.	4r	.	.	.	.
.	.	.	.	2r	.	.	.	.
=164	=164	=164	=164	=164	=164	=164	=164	=164
!	!	!	!	!	!	!LO:TX:a:t=pizz.	!	!
1r	.	1r	.	1r	.	4c#	.	.
.	.	.	.	.	.	4r	.	.
.	.	.	.	.	.	2r	.	.
=165	=165	=165	=165	=165	=165	=165	=165	=165
!	!	!LO:TX:a:t=pizz.	!	!	!	!	!	!
1r	.	4A#X	.	1r	.	1r	.	.
.	.	4r	.	.	.	.	.	.
.	.	2r	.	.	.	.	.	.
=166	=166	=166	=166	=166	=166	=166	=166	=166
!LO:TX:a:t=pizz.	!	!	!	!	!	!	!	!
4c#	.	1r	.	1r	.	1r	.	.
4r	.	.	.	.	.	.	.	.
2r	.	.	.	.	.	.	.	.
=167	=167	=167	=167	=167	=167	=167	=167	=167
1r	.	4f#	.	1r	.	1r	.	I
.	.	4r	.	.	.	.	.	.
.	.	2r	.	.	.	.	.	.
=168	=168	=168	=168	=168	=168	=168	=168	=168
1r	.	1r	.	4d#	.	1r	.	.
.	.	.	.	4r	.	.	.	.
.	.	.	.	2r	.	.	.	.
=169	=169	=169	=169	=169	=169	=169	=169	=169
!LO:TX:a:t=arco	!	!	!	!	!	!	!	!
4FF#'	f	1r	.	1r	.	4B	.	.
4DD#'	.	.	.	.	.	4r	.	.
4BBB'	.	.	.	.	.	2r	.	.
4DD#'	.	.	.	.	.	.	.	.
=170	=170	=170	=170	=170	=170	=170	=170	=170
1r	.	4d#	.	1r	.	1r	.	.
.	.	4r	.	.	.	.	.	.
.	.	2r	.	.	.	.	.	.
=171||	=171||	=171||	=171||	=171||	=171||	=171||	=171||	=171||
*k[f#c#g#d#a#]	*	*k[f#c#g#d#a#]	*	*k[f#c#g#d#a#]	*	*k[f#c#g#d#a#]	*	*
*B:	*	*B:	*	*B:	*	*B:	*	*
!	!	!LO:TX:a:t=arco	!LO:DY:a	!LO:TX:a:t=arco	!	!LO:TX:a:t=arco	!	!
4B	p	4BB'	p p	4D#'	.	4f#'	p	I
4r	.	4D#'	.	4F#'	.	4d#'	.	.
2r	.	4D#'	.	4F#'	.	4B'	.	.
.	.	4BB'	.	4D#	.	4d#'	.	.
=172	=172	=172	=172	=172	=172	=172	=172	=172
4B	.	4BB	.	4D#	.	(2f#	.	.
4r	.	4D#	.	4F#	.	.	.	.
2r	.	4D#	.	4F#	.	2b)	.	.
.	.	4d#	.	4f#	.	.	.	.
=173	=173	=173	=173	=173	=173	=173	=173	=173
4F#	.	4c#	.	4e	.	4a#'	.	V7
4r	.	4B	.	4d#	.	4b'	.	.
2r	.	4A#	.	4c#	.	4cc#'	.	.
.	.	4G#	.	4B	.	4dd#'	.	.
=174	=174	=174	=174	=174	=174	=174	=174	=174
4F#	.	4F#	.	4A#	.	4ee	.	.
4r	.	4F#	.	4A#	.	4r	.	.
2r	.	4G#	.	4B	.	2r	.	.
.	.	4A#	.	4c#	.	.	.	.
=175	=175	=175	=175	=175	=175	=175	=175	=175
4B	.	4B	.	4d#	.	4dd#'	.	I
4r	.	4B	.	4d#	.	4cc#'	.	.
2r	.	4c#	.	4e	.	4b'	.	.
.	.	4d#	.	4f#	.	4a#'	.	.
=176	=176	=176	=176	=176	=176	=176	=176	=176
4E	.	4e	.	4g#	.	(2g#	.	IV
4r	.	4e	.	4b	.	.	.	.
2r	.	4e	.	4a#	.	2cc#)	.	ii
.	.	4e	.	4g#	.	.	.	.
=177	=177	=177	=177	=177	=177	=177	=177	=177
!	!	!	!LO:DY:a	!	!	!	!	!
4D#	f	4A#	f f	4f##X	.	4dd#	f	V/vi
4d#	.	4f##X	.	4a#	.	4dd#	.	.
4d#	.	4f##	.	4a#	.	4dd#	.	.
4d#	.	4f##	.	4a#	.	4dd#	.	.
=178	=178	=178	=178	=178	=178	=178	=178	=178
4d#	.	4f##X	.	4a#	.	4dd#	.	.
4r	.	4D#	.	4d#	.	4r	.	.
2r	.	4D#	p	4d#	p	2r	.	.
.	.	4D#	.	4d#	.	.	.	.
=179	=179	=179	=179	=179	=179	=179	=179	=179
4B	p	4D#'	.	4d#'	.	4ff#'	p	I6
4r	.	4d#'	.	4f#'	.	4dd#'	.	.
2r	.	4d#'	.	4f#'	.	4b'	.	.
.	.	4B'	.	4d#'	.	4dd#'	.	.
=180	=180	=180	=180	=180	=180	=180	=180	=180
4B	.	4B	.	4d#	.	(2ff#	.	I
4r	.	4f#	.	4dd#	.	.	.	.
2r	.	4d#	.	4f#	.	2bb)	.	.
.	.	4B	.	4d#	.	.	.	.
=181	=181	=181	=181	=181	=181	=181	=181	=181
4F#	.	4c#	.	4e	.	4aa#'	.	V7
4r	.	4B	.	4d#	.	4bb'	.	.
2r	.	4A#	.	4c#	.	4ccc#'	.	.
.	.	4G#	.	4B	.	4ddd#'	.	.
=182	=182	=182	=182	=182	=182	=182	=182	=182
4F#	.	4F#	.	4A#	.	4eee	.	.
4F#	.	4f#	.	4a#	.	4r	.	.
4G#	.	4f#	.	4b	.	2r	.	.
4A#	.	4f#	.	4cc#	.	.	.	.
=183	=183	=183	=183	=183	=183	=183	=183	=183
4B	.	4f#	.	4dd#	.	4ddd#'	.	I
4B	.	4b	.	4dd#	.	4ccc#'	.	.
4c#	.	4b	.	4ee	.	4bb'	.	.
4d#	.	4f#	.	4ff#	.	4aa#'	.	.
=184	=184	=184	=184	=184	=184	=184	=184	=184
4e	.	4g#	.	4b	.	(2gg#	.	IV
4e	.	4g#	.	4cc#	.	.	.	.
4e	.	4g#	.	4cc#	.	2ccc#)	.	ii
4e	.	4g#	.	4cc#	.	.	.	.
=185	=185	=185	=185	=185	=185	=185	=185	=185
4d#	f	4f##X	f	4a#	f	4ddd#	f	V/vi
4d#	.	4f##	.	4a#	.	4ddd#	.	.
4d#	.	4f##	.	4a#	.	4ddd#	.	.
4d#	.	4f##	.	4a#	.	4ddd#	.	.
=186	=186	=186	=186	=186	=186	=186	=186	=186
4d#	.	4f##X	.	4a#	.	4ddd#	.	.
4r	.	4D#	.	4d#	.	4r	.	.
2r	.	4D#	p	4d#	p	2r	.	.
.	.	4D#	.	4d#	.	.	.	.
=187	=187	=187	=187	=187	=187	=187	=187	=187
4d#	p	4D#	.	4F##X	.	4a#'	p	.
4r	.	4F##X	.	4A#	.	4f##X'	.	.
2r	.	4F##	.	4A#	.	4d#'	.	.
.	.	4D#	.	4F##	.	4f##'	.	.
=188	=188	=188	=188	=188	=188	=188	=188	=188
4D#	.	4D#	.	4F##X	.	(2a#	.	.
4r	.	4F##X	.	4A#	.	.	.	.
2r	.	4F##	.	4A#	.	2dd#)	.	.
.	.	4D#	.	4F##	.	.	.	.
=189	=189	=189	=189	=189	=189	=189	=189	=189
!LO:TX:b:i:t=cresc.	!	!LO:TX:b:i:t=cresc.	!	!LO:TX:b:i:t=cresc.	!	!LO:TX:b:i:t=cresc.	!	!
4G#	.	4D#	.	4G#	.	4b'	.	vi64
4r	.	4G#	.	4B	.	4g#'	.	.
2r	.	4G#	.	4B	.	4d#'	.	.
.	.	4D#	.	4G#	.	4g#'	.	.
=190	=190	=190	=190	=190	=190	=190	=190	=190
4GG#	.	4E	.	4G#	.	(2b	.	IV6
4r	.	4G#	.	4B	.	.	.	.
2r	.	4G#	.	4B	.	2ee)	.	.
.	.	4E	.	4G#	.	.	.	.
=191	=191	=191	=191	=191	=191	=191	=191	=191
4C#	.	4F#	.	4c#	.	4cc#'	.	V
4r	.	4A#	.	4c#	.	4a#'	.	.
2r	.	4A#	.	4c#	.	4f#'	.	.
.	.	4F#	.	4A#	.	4a#'	.	.
=192	=192	=192	=192	=192	=192	=192	=192	=192
4AA#	.	4F#	.	4c#	.	(2cc#	.	V6
4r	.	4A#	.	4c#	.	.	.	.
2r	.	4A#	.	4c#	.	[2ff#)	.	.
.	.	4F#	.	4A# 4c#	.	.	.	.
=193	=193	=193	=193	=193	=193	=193	=193	=193
1r	.	1r	.	1r	.	4ff#]	.	V
.	.	.	.	.	.	(4cc#	.	.
.	.	.	.	.	.	[2ff#)	.	.
=194	=194	=194	=194	=194	=194	=194	=194	=194
1r	.	1r	.	4r	.	4ff#]	.	.
.	.	.	.	(4c#	.	4r	.	.
.	.	.	.	[2f#)	.	2r	.	.
=195	=195	=195	=195	=195	=195	=195	=195	=195
1r	.	4r	.	4f#]	.	1r	.	.
.	.	(4C#	.	4r	.	.	.	.
.	.	[2F#)	.	2r	.	.	.	.
=196	=196	=196	=196	=196	=196	=196	=196	=196
4r	.	4F#]	.	1r	.	1r	.	.
(4CC#	.	4r	.	.	.	.	.	.
[2FF#)	.	2r	.	.	.	.	.	.
=197	=197	=197	=197	=197	=197	=197	=197	=197
4FF#]	.	1r	.	1r	.	4r	.	i6
4r	.	.	.	.	.	(4dd	.	.
!	!	!	!	!	!	!LO:TX:b:i:t=dim.	!	!
2r	.	.	.	.	.	[2ff#)	.	.
=198	=198	=198	=198	=198	=198	=198	=198	=198
1r	.	1r	.	4r	.	4ff#]	.	.
.	.	.	.	(4d	.	4r	.	.
!	!	!	!	!LO:TX:b:i:t=dim.	!	!	!	!
.	.	.	.	[2f#)	.	2r	.	.
=199	=199	=199	=199	=199	=199	=199	=199	=199
1r	.	4r	.	4f#]	.	1r	.	.
.	.	4D	.	4r	.	.	.	.
!	!	!LO:TX:b:i:t=dim.	!	!	!	!	!	!
.	.	[2F#	.	2r	.	.	.	.
=200	=200	=200	=200	=200	=200	=200	=200	=200
4r	.	4F#]	.	1r	.	1r	.	.
(4DD	.	4r	.	.	.	.	.	.
!LO:TX:b:i:t=dim.	!	!	!	!	!	!	!	!
[2FF#)	.	2r	.	.	.	.	.	.
=201	=201	=201	=201	=201	=201	=201	=201	=201
!	!	!	!	!	!	!LO:TX:a:i:t=Molto poco adagio.	!	!
4FF#]	.	1r	.	1r	.	4r	.	iii.i
4r	.	.	.	.	.	8r	.	.
.	.	.	.	.	.	(8dd#	.	.
!	!	!	!	!	!	!LO:TX:b:i:t=piu p	!	!
2r	.	.	.	.	.	4ff#)	.	.
.	.	.	.	.	.	[4ff#	.	.
=202	=202	=202	=202	=202	=202	=202	=202	=202
1r	.	1r	.	4r	.	4ff#]	.	.
.	.	.	.	8r	.	4r	.	.
.	.	.	.	(8d#	.	.	.	.
!	!	!	!	!LO:TX:b:i:t=piu p	!	!	!	!
.	.	.	.	4f#)	.	2r	.	.
.	.	.	.	[4f#	.	.	.	.
=203	=203	=203	=203	=203	=203	=203	=203	=203
1r	.	4r	.	4f#]	.	1r	.	.
.	.	8r	.	4r	.	.	.	.
.	.	(8D#	.	.	.	.	.	.
!	!	!LO:TX:b:i:t=piu p	!	!	!	!	!	!
.	.	4F#)	.	2r	.	.	.	.
.	.	[4F#	.	.	.	.	.	.
=204	=204	=204	=204	=204	=204	=204	=204	=204
!LO:TX:a:i:t=un poco più adagio	!	!	!	!	!	!	!	!
4r	.	4F#]	.	1r	.	1r	.	.
8r	.	4r	.	.	.	.	.	.
(8DD#	.	.	.	.	.	.	.	.
!LO:TX:b:i:t=piu p	!	!	!	!	!	!	!	!
4FF#)	.	2r	.	.	.	.	.	.
(4FF#	.	.	.	.	.	.	.	.
=205	=205	=205	=205	=205	=205	=205	=205	=205
!	!	!	!	!	!	!LO:TX:a:B:t=Tempo I.	!	!
4AA#')	pp	2r	.	1r	.	1r	.	.
4FF#'	.	.	.	.	.	.	.	.
4DD#'	.	4A#'	pp	.	.	.	.	.
4FF#'	.	4F#'	.	.	.	.	.	.
=206	=206	=206	=206	=206	=206	=206	=206	=206
4AA#	.	4D#'	.	4A#'	pp	2r	.	i64
4r	.	4F#'	.	4F#'	.	.	.	.
!	!	!	!	!	!LO:DY:a	!	!	!
4D#	.	2r	.	4D#'	pp	4A#'	.	.
4r	.	.	.	4F#'	.	4F#'	.	.
=207	=207	=207	=207	=207	=207	=207	=207	=207
4F#	.	4A#	.	2r	.	4D#'	.	i6
4r	.	4F#	.	.	.	4F#'	.	.
4A#	.	4D#	.	4A#	.	2r	.	.
4r	.	4F#	.	4F#	.	.	.	.
=208	=208	=208	=208	=208	=208	=208	=208	=208
4d#	.	2r	.	4D#	.	4A#	.	i
4r	.	.	.	4F#	.	4F#	.	.
4d#	.	4A#	.	2r	.	4D#	.	.
4r	.	4F#	.	.	.	4F#	.	.
=209	=209	=209	=209	=209	=209	=209	=209	=209
4d#	.	4D#	.	2r	.	4a#	.	.
4r	.	4F#	.	.	.	4f#	.	.
2r	.	4F#	.	4A#	.	4d#	.	.
.	.	4D#	.	4F#	.	4f#	.	.
=210	=210	=210	=210	=210	=210	=210	=210	=210
4d#	.	4d#	.	4f#	.	(2a#	.	.
4r	.	4f#	.	4a#	.	.	.	.
2r	.	4f#	.	4a#	.	2dd#)	.	i6
.	.	4f#	.	4a#	.	.	.	.
=211	=211	=211	=211	=211	=211	=211	=211	=211
4A#	.	4e#X	.	4g#	.	4cc##X	.	V7
4r	.	4d#	.	4f#	.	4dd#	.	.
2r	.	4A#	.	4c##X	.	4ee#X	.	.
.	.	4A#	.	4d#	.	4ff#	.	.
=212	=212	=212	=212	=212	=212	=212	=212	=212
!LO:TX:b:i:t=rit.	!	!LO:TX:b:i:t=rit.	!	!LO:TX:b:i:t=rit.	!	!LO:TX:b:i:t=rit.	!	!
4A#	.	4c##X	.	4e#X	.	4gg#	.	.
4A#	.	4d#	.	4f#	.	4ff#	.	.
4A#	.	4e#X	.	4cc##X	.	4ee#X	.	.
4A#;	.	4e#;	.	4cc##;	.	4gg#;	.	.
=213	=213	=213	=213	=213	=213	=213	=213	=213
!	!	!	!	!	!	!LO:TX:a:B:t=in tempo	!	!
4B	f	4d#'	f	4dd#'	f	4ff#'	f	I.I
4r	.	4d#'	.	4f#'	.	4dd#'	.	.
2r	.	4d#'	.	4f#'	.	4b'	.	.
.	.	4B'	.	4d#'	.	4dd#'	.	.
=214	=214	=214	=214	=214	=214	=214	=214	=214
4B	.	4B	.	4d#	.	(2ff#	.	.
4r	.	4d#	.	4f#	.	.	.	.
2r	.	4d#	.	4f#	.	2bb)	.	.
.	.	4B	.	4d#	.	.	.	.
=215	=215	=215	=215	=215	=215	=215	=215	=215
4F#	.	4c#	.	4e	.	4aa#'	.	V7
4r	.	4B	.	4d#	.	4bb'	.	.
2r	.	4A#	.	4c#	.	4ccc#'	.	.
.	.	4G#	.	4B	.	4ddd#'	.	.
=216	=216	=216	=216	=216	=216	=216	=216	=216
4F#	.	4F#	.	4A#	.	4eee	.	.
4F#	.	4f#	.	4a#	.	4r	.	.
4G#	.	4f#	.	4b	.	2r	.	.
4A#	.	4f#	.	4cc#	.	.	.	.
=217	=217	=217	=217	=217	=217	=217	=217	=217
4B	.	4f#	.	4b	.	4ddd#'	.	I
4B	.	4d#	.	4b	.	4ccc#'	.	.
4c#	.	4e	.	4b	.	4bb'	.	.
4d#	.	4f#	.	4b	.	4aa#'	.	.
=218	=218	=218	=218	=218	=218	=218	=218	=218
4e	.	4g#	.	4b	.	(2gg#	.	IV
*clefF4	*	*	*	*	*	*	*	*
4E	.	4B	.	4g#	.	.	.	.
4E#X	.	4B	.	4g#	.	2ccc#)	.	V65/V
4r	.	4G#	.	4c#	.	.	.	.
=219	=219	=219	=219	=219	=219	=219	=219	=219
4F#	.	4A#	.	4c#	.	4aa#'	.	V
4r	.	4c#	.	4f#	.	4bb'	.	.
4C#	.	4c#	.	4e#X	.	4gg#'	.	V/V
4r	.	4c#	.	4e	.	4aa#'	.	V43
=220	=220	=220	=220	=220	=220	=220	=220	=220
4E	.	4A#	.	4c#	.	(2ff#	.	V2
4r	.	4A#	.	4c#	.	.	.	.
4D#	.	4F#	.	4B	.	2bb)	.	I6
4r	.	4d#	.	4f#	.	.	.	.
=221	=221	=221	=221	=221	=221	=221	=221	=221
4F#	.	4d#	.	4f#	.	4bb'	.	V(64)
4r	.	4c#	.	4ee	.	4aa#'	.	.
4FF#	.	4c#	.	4ee	.	4gg#'	.	V7
4r	.	4c#	.	4ee	.	4aa#'	.	.
=222	=222	=222	=222	=222	=222	=222	=222	=222
4BB	p	4F#	p	4dd#	p	4bb	p	I
*clefC4	*	*	*	*	*	*	*	*
4c#	.	4e	.	4f#	.	4a#	.	.
4B	.	4d#	.	4f#	.	4b	.	.
4A#	.	4c#	.	4f#	.	4cc#	.	.
=223	=223	=223	=223	=223	=223	=223	=223	=223
4B	.	4d#	.	4f#	.	(4dd#	.	.
4E	.	4F#	.	4f#	.	4cc#)	.	.
4D#	.	4F#	.	4f#	.	4b'	.	.
4r	.	4B	.	4f#	.	4a#'	.	.
=224	=224	=224	=224	=224	=224	=224	=224	=224
4E	.	4B	.	4e	.	(4g#	.	IV
4r	.	4G#	.	4c#	.	4a#)	.	.
4E#X	.	4G#	.	4c#	.	4b'	.	V65/V
4r	.	4c#	.	4g#	.	4cc#'	.	.
=225	=225	=225	=225	=225	=225	=225	=225	=225
!LO:TX:b:i:t=cresc.	!	!LO:TX:b:i:t=cresc.	!	!LO:TX:b:i:t=cresc.	!	!LO:TX:b:i:t=cresc.	!	!
4F#	.	4c#	.	4f#	.	(4a#	.	V
4r	.	4c#	.	4f#	.	4b)	.	.
4C#	.	4c#	.	4e#X	.	4g#'	.	V/V
4r	.	4c#	.	4e	.	4a#'	.	V43
=226	=226	=226	=226	=226	=226	=226	=226	=226
4E	.	4A#	.	4c#	.	(4f#	.	V2
4r	.	4A#	.	4c#	.	4g#)	.	.
4D#	.	4F#	.	4c#	.	4a#'	.	I6
4r	.	4D#	.	4d#	.	4b'	.	.
=227	=227	=227	=227	=227	=227	=227	=227	=227
4F#	.	4D#	.	4F#	.	(4b	.	I6
4FF#	.	4C#	.	4E	.	4a#)	.	.
4FF#	.	4C#	.	4e	.	4g#'	.	V7
4FF#	.	4c#	.	4e	.	4a#'	.	.
=228	=228	=228	=228	=228	=228	=228	=228	=228
4D#	.	4F#	.	4B	.	(4cc#	.	I6
4DD#	.	4D#	.	4F#	.	4b)	.	.
4DD#	.	4d#	.	4f#	.	4a#'	.	.
4DD#	.	4d#	.	4f#	.	4b'	.	.
=229	=229	=229	=229	=229	=229	=229	=229	=229
4AA#	f	4c#	f	4f#	f	(4dd#	f	V65
4AAA#	.	4F#	.	4f#	.	4cc#)	.	.
4AAA#	.	4F#	.	4f#	.	4b#X'	.	.
4AAA#	.	4F#	.	4f#	.	4cc#'	.	.
=230	=230	=230	=230	=230	=230	=230	=230	=230
4BB	sf	4F#	sf	4f#	sf	(4ee	sf	I
4BBB	.	4F#	.	4f#	.	4dd#)	.	.
4BBB	.	4F#	.	4f#	.	4cc#'	.	.
4BBB	.	4F#	.	4f#	.	4dd#'	.	.
=231	=231	=231	=231	=231	=231	=231	=231	=231
4G#	f	4B	f	4e	f	(4ff#	f	IV6
4GG#	.	4G# 4B	.	4g# 4b	.	4ee)	.	.
4GG#	.	4G# 4B	.	4g# 4b	.	4dd#'	.	.
4GG#	.	4G# 4B	.	4g# 4b	.	4ee'	.	.
=232	=232	=232	=232	=232	=232	=232	=232	=232
!	!LO:DY:a	!	!	!	!	!	!	!
4D#	f f	4F# 4B	.	4f# 4b	f	(4gg#	f	I6
4DD#	.	4F# 4B	.	4f# 4b	.	4ff#)	.	.
4DD#	.	4F# 4B	.	4f# 4b	.	4ee#X'	.	.
4DD#	.	4F# 4B	.	4f# 4b	.	4ff#'	.	.
=233	=233	=233	=233	=233	=233	=233	=233	=233
!	!LO:DY:a	!	!	!	!	!	!	!
4EE	f f	4G# 4B	.	4g# 4b	f	(4aa	f	IV(6)
4EE#X	.	4G# 4c#	.	4g# 4b	.	4gg#)	.	V65/V
4FF#	.	4F# 4d#	.	4f# 4b	.	4bb'	.	V(64)
4FF#	.	4F# 4e	.	4c# 4a#	.	4aa#X'	.	V7
=234	=234	=234	=234	=234	=234	=234	=234	=234
4BB	.	4F# 4d#	.	4B 4b	.	4bb'	.	I\\
4r	.	4r	.	2r	.	4bb'	.	.
!	!	!	!	!	!	!	!LO:DY:a	!
2r	.	2r	.	.	.	4ff#'	p	.
.	.	.	.	4ff#	p	4r	.	.
=235	=235	=235	=235	=235	=235	=235	=235	=235
2r	.	4r	.	4b	.	1r	.	.
.	.	4B	.	4r	.	.	.	.
4r	.	4F#	p	2r	.	.	.	.
4F#	p	4r	.	.	.	.	.	.
=236	=236	=236	=236	=236	=236	=236	=236	=236
4BB	.	4r	.	4r	.	2r	.	.
2r	.	4B	.	4d#	.	.	.	.
.	.	4F#	.	4B	.	4r	.	.
4F#	.	4r	.	4r	.	4dd#	p	.
=237	=237	=237	=237	=237	=237	=237	=237	=237
!	!	!	!	!LO:TX:b:i:t=piacevole	!	!LO:TX:b:i:t=piacevole	!	!
4BB	.	4r	.	(2D#	.	(2d#	.	I
2r	.	4B	.	.	.	.	.	.
.	.	4F#	.	2E	.	2e	.	V7
4F#	.	4r	.	.	.	.	.	.
=238	=238	=238	=238	=238	=238	=238	=238	=238
4BB	.	4r	.	2F#	.	2f#	.	I
2r	.	4B	.	.	.	.	.	.
.	.	4F#	.	2B)	.	2b)	.	I64
4F#	.	4r	.	.	.	.	.	.
=239	=239	=239	=239	=239	=239	=239	=239	=239
4BB	.	4r	.	(4c#	.	(4cc#	.	I
2r	.	4B	.	4d#	.	4dd#	.	.
.	.	4F#	.	4e	.	4ee	.	V7
4F#	.	4r	.	4c#	.	4cc#	.	.
=240	=240	=240	=240	=240	=240	=240	=240	=240
4BB	.	4r	.	2f#	.	2ff#	.	I
2r	.	4B	.	.	.	.	.	.
.	.	4F#	.	4b)	.	4bb)	.	I64
4F#	.	4r	.	4r	.	4r	.	.
=241	=241	=241	=241	=241	=241	=241	=241	=241
4BB	.	4r	.	(2D#	.	(2d#	.	I
2r	.	4B	.	.	.	.	.	.
.	.	4F#	.	2E	.	2e	.	V7
4F#	.	4r	.	.	.	.	.	.
=242	=242	=242	=242	=242	=242	=242	=242	=242
4BB	.	4r	.	2F#	.	2f#	.	I
2r	.	4B	.	.	.	.	.	.
.	.	4F#	.	2B)	.	2b)	.	I64
4F#	.	4r	.	.	.	.	.	.
=243	=243	=243	=243	=243	=243	=243	=243	=243
4BB	.	4r	.	(4c#	.	(4cc#	.	I
2r	.	4B	.	4d#	.	4dd#	.	.
.	.	4F#	.	4e	.	4ee	.	V7
4F#	.	4r	.	4c#	.	4cc#	.	.
=244	=244	=244	=244	=244	=244	=244	=244	=244
4BB	.	4r	.	4B)	.	4b)	.	I\\
2r	.	4B	.	4r	.	4r	.	.
.	.	4F#	.	2r	.	2r	.	.
4FF#	.	4F#	.	.	.	.	.	.
=245	=245	=245	=245	=245	=245	=245	=245	=245
4BBB	.	4BB	.	(2D#	.	(2d#	.	I
4BB	.	4B	.	.	.	.	.	.
4FF#	.	4F#	.	2E	.	2e	.	V7
4FF#	.	4F#	.	.	.	.	.	.
=246	=246	=246	=246	=246	=246	=246	=246	=246
4BBB	.	4BB	.	2F#	.	2f#	.	I
4BB	.	4B	.	.	.	.	.	.
4FF#	.	4F#	.	2B)	.	2b)	.	I64
4FF#	.	4F#	.	.	.	.	.	.
=247	=247	=247	=247	=247	=247	=247	=247	=247
4BBB	.	4BB	.	(4c#	.	(4cc#	.	I
4BB	.	4B	.	4d#	.	4dd#	.	.
4FF#	.	4F#	.	4e	.	4ee	.	V7
4FF#	.	4F#	.	4c#	.	4cc#	.	.
=248	=248	=248	=248	=248	=248	=248	=248	=248
4BBB	.	4BB	.	2f#	.	2ff#	.	I
4BB	.	4B	.	.	.	.	.	.
4FF#	.	4F#	.	4b)	.	4bb)	.	I64
4FF#	.	4F#	.	4r	.	4r	.	.
=249	=249	=249	=249	=249	=249	=249	=249	=249
4BBB	.	4BB	.	(2D#	.	(2d#	.	I
4BB	.	4B	.	.	.	.	.	.
4FF#	.	4F#	.	2E	.	2e	.	V7
4FF#	.	4F#	.	.	.	.	.	.
=250	=250	=250	=250	=250	=250	=250	=250	=250
4BBB	.	4BB	.	2F#	.	2f#	.	I
4BB	.	4B	.	.	.	.	.	.
4FF#	.	4F#	.	2B)	.	2b)	.	I64
4FF#	.	4F#	.	.	.	.	.	.
=251	=251	=251	=251	=251	=251	=251	=251	=251
4BBB	.	4BB	.	(4c#	.	(4cc#	.	I
4BB	.	4B	.	4d#	.	4dd#	.	.
4FF#	.	4F#	.	4e	.	4ee	.	V7
4FF#	.	4F#	.	4c#	.	4cc#	.	.
=252	=252	=252	=252	=252	=252	=252	=252	=252
4BBB	.	4BB	.	4B)	.	4b)	.	I\\
2r	.	2r	.	4B'	.	4b'	.	.
.	.	.	.	4F#'	.	4f#'	.	@none
4FF#'	.	4F#'	.	4r	.	4r	.	.
=253	=253	=253	=253	=253	=253	=253	=253	=253
4BBB'	.	4BB'	.	1r	.	1r	.	.
4D#	.	2r	.	.	.	.	.	.
4AA#	pp	.	.	.	.	.	.	.
4r	.	4C#	pp	.	.	.	.	.
=254	=254	=254	=254	=254	=254	=254	=254	=254
4r	.	4BB	.	1r	.	1r	.	.
4C#	.	2r	.	.	.	.	.	.
4GG#	.	.	.	.	.	.	.	.
4r	.	4BB	.	.	.	.	.	.
=255	=255	=255	=255	=255	=255	=255	=255	=255
4r	.	4AA#	.	1r	.	1r	.	.
4BB	.	2r	.	.	.	.	.	.
4FF#	.	.	.	.	.	.	.	.
4r	.	4AA#	.	.	.	.	.	.
=256	=256	=256	=256	=256	=256	=256	=256	=256
4r	.	4GG#	.	1r	.	1r	.	.
4AA#	.	2r	.	.	.	.	.	.
4EE#X	.	.	.	.	.	.	.	.
4r	.	4G#	.	.	.	.	.	.
=257	=257	=257	=257	=257	=257	=257	=257	=257
1r	.	4F#	.	2r	.	4r	.	.
.	.	4r	.	.	.	4gg#	.	.
.	.	2r	.	4r	pp	4dd#	pp	.
.	.	.	.	4ff#	.	4r	.	.
=258	=258	=258	=258	=258	=258	=258	=258	=258
1r	.	1r	.	4ee	.	4r	.	.
.	.	.	.	4r	.	4ff#	.	.
.	.	.	.	4r	.	4cc#	.	.
.	.	.	.	4ee	.	4r	.	.
=259	=259	=259	=259	=259	=259	=259	=259	=259
1r	.	1r	.	4dd#	.	4r	.	.
.	.	.	.	4r	.	4ee	.	.
.	.	.	.	4r	.	4b	.	.
.	.	.	.	4dd#	.	4r	.	.
=260	=260	=260	=260	=260	=260	=260	=260	=260
1r	.	1r	.	4cc#	.	4r	.	.
.	.	.	.	4r	.	4dd#	.	.
.	.	.	.	4r	.	4a#	.	.
.	.	.	.	4cc#	.	4r	.	.
=261	=261	=261	=261	=261	=261	=261	=261	=261
!LO:TX:b:i:t=cresc.	!	!LO:TX:b:i:t=cresc.	!	!LO:TX:b:i:t=cresc.	!	!	!	!
(2DD#	.	(2D#	.	4b	.	4r	.	I6
.	.	.	.	4r	.	4bb	.	.
!	!	!	!	!	!	!LO:TX:b:i:t=cresc.	!	!
2EE	.	2E	.	4r	.	4ff#	.	V2
.	.	.	.	4ff#	.	4r	.	.
=262	=262	=262	=262	=262	=262	=262	=262	=262
2FF#	.	2F#	.	4b	.	4r	.	I64
.	.	.	.	4r	.	4bb	.	.
2BB)	.	2B)	.	4r	.	4ff#	.	I
.	.	.	.	4ff#	.	4r	.	.
=263	=263	=263	=263	=263	=263	=263	=263	=263
!	!	!	!	!	!LO:DY:a	!	!	!
(4C#	p	(4c#	p	4b	p	4r	p	I6
4D#	.	4d#	.	4r	.	4bb	.	.
4E	.	4e	.	4r	.	4ff#	.	V43
4C#	.	4c#	.	4ff#	.	4r	.	.
=264	=264	=264	=264	=264	=264	=264	=264	=264
2F#	.	2f#	.	4b	.	4r	.	I64
.	.	.	.	4r	.	4bb	.	.
4B)	.	4b)	.	4r	.	4ff#	.	I
4r	.	4r	.	4ff#	.	4r	.	.
=265	=265	=265	=265	=265	=265	=265	=265	=265
!LO:TX:b:i:t=cresc.	!	!LO:TX:b:i:t=cresc.	!	!LO:TX:b:i:t=cresc.	!	!LO:TX:b:i:t=cresc.	!	!
(2DD#	.	(2D#	.	4b	.	4r	.	I6
.	.	.	.	4r	.	4bb	.	.
2EE	.	2E	.	4r	.	4ff#	.	V2
.	.	.	.	4ff#	.	4r	.	.
=266	=266	=266	=266	=266	=266	=266	=266	=266
2FF#	.	2F#	.	4b	.	4r	.	I64
.	.	.	.	4r	.	4bb	.	.
2BB)	.	2B)	.	4r	.	4ff#	.	I
.	.	.	.	4ff#	.	4r	.	.
=267	=267	=267	=267	=267	=267	=267	=267	=267
(4C#	p	(4c#	p	4b	p	4r	.	I6
4D#	.	4d#	.	4r	.	4bb	p	.
4E	.	4e	.	4r	.	4ff#	.	V43
4C#	.	4c#	.	4ff#	.	4r	.	.
=268	=268	=268	=268	=268	=268	=268	=268	=268
4BB)	.	4B)	.	4dd#	.	4r	.	I64
4r	.	4r	.	4r	.	4bb	.	.
2r	.	2r	.	4r	.	4ff#	.	I
.	.	.	.	4f#	.	4ff#	.	.
=269	=269	=269	=269	=269	=269	=269	=269	=269
!LO:TX:b:i:t=cresc.	!	!LO:TX:b:i:t=cresc.	!	!LO:TX:b:i:t=cresc.	!	!LO:TX:b:i:t=cresc.	!	!
(2DD#	.	(2D#	.	4B	.	4b	.	I6
.	.	.	.	4b	.	4bb	.	.
2EE	.	2E	.	4f#	.	4ff#	.	V2
.	.	.	.	4f#	.	4ff#	.	.
=270	=270	=270	=270	=270	=270	=270	=270	=270
2FF#	.	2F#	.	4B	.	4b	.	I64
.	.	.	.	4b	.	4bb	.	.
2BB)	.	2B)	.	4f#	.	4ff#	.	I
.	.	.	.	4f#	.	4ff#	.	.
=271	=271	=271	=271	=271	=271	=271	=271	=271
(4C#	p	(4c#	p	4B	p	4b	p	I6
4D#	.	4d#	.	4b	.	4bb	.	.
4E	.	4e	.	4f#	.	4ff#	.	V43
4C#	.	4c#	.	4f#	.	4ff#	.	.
=272	=272	=272	=272	=272	=272	=272	=272	=272
2F#	.	2f#	.	4B	.	4b	.	I64
.	.	.	.	4b	.	4bb	.	.
4B)	.	4b)	.	4f#	.	4ff#	.	I
4r	.	4r	.	4f#	.	4ff#	.	.
=273	=273	=273	=273	=273	=273	=273	=273	=273
!LO:TX:b:i:t=cresc.	!	!LO:TX:b:i:t=cresc.	!	!LO:TX:b:i:t=cresc.	!	!LO:TX:b:i:t=cresc.	!	!
(2DD#	.	(2D#	.	4B	.	4b	.	I6
.	.	.	.	4b	.	4bb	.	.
2EE	.	2E	.	4f#	.	4ff#	.	V2
.	.	.	.	4f#	.	4ff#	.	.
=274	=274	=274	=274	=274	=274	=274	=274	=274
2FF#	.	2F#	.	4B	.	4b	.	I64
.	.	.	.	4b	.	4bb	.	.
2BB)	.	2B)	.	4f#	.	4ff#	.	I
.	.	.	.	4f#	.	4ff#	.	.
=275	=275	=275	=275	=275	=275	=275	=275	=275
(4C#	p	(4c#	p	4B	p	4b	p	I6
4D#	.	4d#	.	4b	.	4bb	.	.
4E	.	4e	.	4f#	.	4ff#	.	V43
4C#	.	4c#	.	4f#	.	4ff#	.	.
=276	=276	=276	=276	=276	=276	=276	=276	=276
4BB	.	4B	.	4f#	.	4ff#	.	I
4C#	.	4c#	.	4b	.	4bb	.	.
4D#	.	4d#	.	4f#	.	4ff#	.	I6
4BB)	.	4B)	.	4f#	.	4ff#	.	.
=277	=277	=277	=277	=277	=277	=277	=277	=277
!	!	!	!	!	!	!LO:TX:b:i:t=Ritmo di quattro battute	!	!
(4C#	.	(4c#	.	4f#	.	4ff#	.	I6
4D#	.	4d#	.	4b	.	4bb	.	.
4E	.	4e	.	4f#	.	4ff#	.	V43
4C#	.	4c#	.	4f#	.	4ff#	.	.
=278	=278	=278	=278	=278	=278	=278	=278	=278
!LO:TX:b:i:t=cresc.	!	!LO:TX:b:i:t=cresc.	!	!LO:TX:b:i:t=cresc.	!	!LO:TX:b:i:t=cresc.	!	!
2BB	.	2B	.	(4f#	.	(4ff#	.	I
.	.	.	.	4b)	.	4bb	.	.
2EE	.	2E	.	(2E	.	2e	.	IV.I
=279||	=279||	=279||	=279||	=279||	=279||	=279||	=279||	=279||
*k[f#c#g#d#]	*	*k[f#c#g#d#]	*	*k[f#c#g#d#]	*	*k[f#c#g#d#]	*	*
*E:	*	*E:	*	*E:	*	*E:	*	*
2GG#	.	2GG#	.	2G#	.	2g#	.	.
2BBB	.	2BB	.	2B	.	2b	.	.
=280	=280	=280	=280	=280	=280	=280	=280	=280
2CC#	.	2C#	.	2c#	.	2cc#	.	.
2BBB)	.	2BB)	.	2B)	.	2b)	.	.
=281	=281	=281	=281	=281	=281	=281	=281	=281
(4CC#	.	(4C#	.	(4c#	.	(4cc#	.	.
4DD#	.	4D#	.	4d#	.	4dd#	.	.
4EE	.	4E	.	4e	.	4ee	.	.
4FF#	.	4F#	.	4f#	.	4ff#	.	.
=282	=282	=282	=282	=282	=282	=282	=282	=282
2GG#	>	2G#	>	2g#	>	2gg#	>	.
2EE	]]	2E	]]	2e	]]	2ee	]]	.
=283	=283	=283	=283	=283	=283	=283	=283	=283
2FF#	p	2F#	p	2f#	p	2ff#	p	V
2BB	.	2B	.	2b	.	2bb	.	.
=284	=284	=284	=284	=284	=284	=284	=284	=284
2AA	.	2A	.	2a	.	2aa	.	.
2GG#)	.	2G#)	.	2g#)	.	2gg#)	.	.
=285	=285	=285	=285	=285	=285	=285	=285	=285
!	!	!	!	!	!	!LO:TX:b:i:t=Ritmo di quattro battute	!	!
!LO:TX:b:i:t=cresc.	!	!LO:TX:b:i:t=cresc.	!	!LO:TX:b:i:t=cresc.	!	!LO:TX:b:i:t=cresc.	!	!
(4CC#	.	(4C#	.	(4c#	.	(4cc#	.	vi
4DD#	.	4D#	.	4d#	.	4dd#	.	.
4EE	.	4E	.	4e	.	4ee	.	.
4CC#	.	4C#	.	4c#	.	4cc#	.	.
=286	=286	=286	=286	=286	=286	=286	=286	=286
2BBB	.	1BB	.	4B)	.	2b	.	V7
.	.	.	.	4A'	.	.	.	.
2EE	.	.	.	4G#'	.	2e	.	I
.	.	.	.	4g#'	.	.	.	.
=287	=287	=287	=287	=287	=287	=287	=287	=287
2BBB	.	2GG#	.	4r	.	2g#	.	I64
.	.	.	.	4f#	.	.	.	.
2GGG#	.	[2E	.	4e	.	2b	.	I6
.	.	.	.	4ee	.	.	.	.
=288	=288	=288	=288	=288	=288	=288	=288	=288
2AAA	.	2E])	.	4r	.	2cc#	.	IV
.	.	.	.	4a	.	.	.	.
2GGG#)	.	(2E	.	4e	.	2b)	.	I6
.	.	.	.	4ee	.	.	.	.
=289	=289	=289	=289	=289	=289	=289	=289	=289
(4AAA	.	4D#	.	4r	.	(4cc#	.	V2
4BBB	.	4C#	.	4A	.	4dd#	.	.
4CC#	.	4BB	.	4E	.	4ee	.	V65
4DD#	.	4AA	.	4a	.	4ff#	.	.
=290	=290	=290	=290	=290	=290	=290	=290	=290
2EE	>	2GG#	>	4r	>	2gg#	>	I
.	.	.	.	4A	.	.	.	.
2CC#	]]	2E	]]	4G#	.	2ee	]]	vi
.	.	.	.	4g#	]]	.	.	.
=291	=291	=291	=291	=291	=291	=291	=291	=291
!	!	!	!	!	!LO:DY:a	!	!	!
2DD#	p	2F#	p	4r	p p	2ff#	.	V65
.	.	.	.	4c#	.	.	.	.
2BBB	.	2D#	.	4B	.	2bb	.	V
.	.	.	.	4b	.	.	.	.
=292	=292	=292	=292	=292	=292	=292	=292	=292
2DD#	.	2F#	.	4r	.	2aa	.	V65
.	.	.	.	4f#	.	.	.	.
[2EE)	.	2G#)	.	4e	.	2gg#)	.	I[I
.	.	.	.	4b	.	.	.	.
=293	=293	=293	=293	=293	=293	=293	=293	=293
!LO:TX:b:i:t=cresc.	!	!LO:TX:b:i:t=cresc.	!	!LO:TX:b:i:t=cresc.	!	!LO:TX:b:i:t=cresc.	!	!
(1EE]	.	4A	.	4r	.	(2ff#	.	iio6
.	.	4a	.	4cc	.	.	.	.
.	.	4g#	.	4b	.	2gg#	.	I
.	.	4B	.	4g#	.	.	.	.
=294	=294	=294	=294	=294	=294	=294	=294	=294
2EE)	.	4F#	.	4r	.	2aa	.	V43
.	.	4r	.	4d#	.	.	.	.
[2EE	.	4G#	.	4e	.	2gg#	.	I
.	.	4g#	.	4B	.	.	.	.
=295	=295	=295	=295	=295	=295	=295	=295	=295
1EE_	.	4d# 4f#	.	4r	.	2aa	.	V65
.	.	4r	.	4f#	.	.	.	.
.	.	4G#	.	4e	.	2bb	.	I
.	.	4E	.	4G#	.	.	.	.
=296	=296	=296	=296	=296	=296	=296	=296	=296
(2EE]	>	4AA#X	>	4r	>	2ccc#	>	#iio2]
.	.	4A#X	.	4F##X	.	.	.	.
2GGG#)	]]	4B	.	4e	.	2bb)	]]	I6
.	.	4b	]]	4E	]]	.	.	.
=297	=297	=297	=297	=297	=297	=297	=297	=297
!	!	!	!	!	!	!LO:TX:b:i:t=cresc.	!	!
(2AAA	p	4C#	p	4r	p	(2ff#	p	ii6
.	.	4r	.	4c#	.	.	.	.
!LO:TX:b:i:t=cresc.	!	!LO:TX:b:i:t=cresc.	!	!LO:TX:b:i:t=cresc.	!	!	!	!
2GGG#	.	4BB#X	.	4d#	.	2gg#	.	V/vi
.	.	4B#X	.	4dd#	.	.	.	.
=298	=298	=298	=298	=298	=298	=298	=298	=298
2AAA	.	4BB#X	.	4r	.	2ff#	.	#vo2
.	.	4r	.	4d#	.	.	.	.
2AAA#X	.	4C#	.	4c#	.	2ee)	.	#ivo7
.	.	4G	.	4cc#	.	.	.	.
=299	=299	=299	=299	=299	=299	=299	=299	=299
2BBB)	p	4E	p	4r	p	(2b	p	V(64)
.	.	4r	.	4c#	.	.	.	.
2BB	.	4D#	.	4B	.	2ff#	.	V
.	.	4d#	.	4b	.	.	.	.
=300	=300	=300	=300	=300	=300	=300	=300	=300
2EE	.	4BB	.	4r	.	2gg#	.	I[I
.	.	4r	.	4c#	.	.	.	.
[2EE	.	4G#	.	4B	.	2ee)	.	I
.	.	4g#	.	4b	.	.	.	.
=301	=301	=301	=301	=301	=301	=301	=301	=301
!LO:TX:b:i:t=cresc.	!	!LO:TX:b:i:t=cresc.	!	!LO:TX:b:i:t=cresc.	!	!LO:TX:b:i:t=cresc.	!	!
1EE_	.	4D#	.	4r	.	(2ff#	.	iio6
.	.	4c	.	4D# 4A	.	.	.	.
.	.	4B	.	4G#	.	2gg#	.	I
.	.	4E	.	4g#	.	.	.	.
=302	=302	=302	=302	=302	=302	=302	=302	=302
2EE]	.	4D# 4F#	.	4r	.	2aa	.	#viio
.	.	4d#	.	4cc	.	.	.	.
[2EE	.	4e	.	4b	.	2gg#	.	I
.	.	4b	.	4g#	.	.	.	.
=303	=303	=303	=303	=303	=303	=303	=303	=303
1EE_	.	4d# 4f#	.	4r	.	2aa	.	V65
.	.	4r	.	4F#	.	.	.	.
.	.	4GG#	.	4E	.	2bb	.	I
.	.	4G#	.	4e	.	.	.	.
=304	=304	=304	=304	=304	=304	=304	=304	=304
2EE]	>	4F##X	>	4A#X	>	2ccc#	>	#ivo43]
.	.	4F##	.	4a#X	.	.	.	.
(2GGG#	]]	4E	.	4b	.	2bb)	]]	I6
.	.	4e	]]	4B	]]	.	.	.
=305	=305	=305	=305	=305	=305	=305	=305	=305
2AAA	p	4C#	p	4r	p	(2ff#	p	ii6
.	.	4r	.	4c#	.	.	.	.
!LO:TX:b:i:t=cresc.	!	!LO:TX:b:i:t=cresc.	!	!LO:TX:b:i:t=cresc.	!	!LO:TX:b:i:t=cresc.	!	!
2GGG#	.	4D#	.	4B#X	.	2gg#	.	V/vi
.	.	4d#	.	4b#X	.	.	.	.
=306	=306	=306	=306	=306	=306	=306	=306	=306
2AAA	.	4C#	.	4r	.	2ff#	.	ii6
.	.	4r	.	4c#	.	.	.	.
2AAA#X	.	4c#	.	4F#	.	2ee	.	V65/V
.	.	4F#	.	4f#	.	.	.	.
=307	=307	=307	=307	=307	=307	=307	=307	=307
!	!LO:DY:a	!	!	!	!	!	!	!
2BBB	p p	4GG# 4E	.	4r	p	2b	p	V(64)
.	.	4e	.	4G#	.	.	.	.
2DD#	.	4B	.	4F#	.	2ff#	.	V7
.	.	4a	.	4f#	.	.	.	.
=308	=308	=308	=308	=308	=308	=308	=308	=308
2EE	.	4B	.	4r	.	2gg#	.	I
.	.	4F#	.	4A	.	.	.	.
2GG#)	.	4GG#	.	4B	.	2ee)	.	I6
.	.	4G#	.	4b	.	.	.	.
=309	=309	=309	=309	=309	=309	=309	=309	=309
(2BB	.	4F#	.	4r	.	4aa'	.	V7
.	.	2r	.	4cc#	.	4ff#'	.	.
2D#	.	.	.	4b	.	2ff#	.	V65
.	.	4A	.	4r	.	.	.	.
=310	=310	=310	=310	=310	=310	=310	=310	=310
2BB	.	4G#	.	4r	.	4bb'	.	I64
.	.	2r	.	4c#	.	4gg#'	.	.
2E)	.	.	.	4B	.	2gg#	.	I
.	.	4g#	.	4r	.	.	.	.
=311	=311	=311	=311	=311	=311	=311	=311	=311
(2BB	.	4d#	.	4r	.	4aa	.	V7
.	.	2r	.	4cc#	.	4ff#	.	.
2A)	.	.	.	4b	.	4ff#	.	V2
.	.	4d#	.	4r	.	4ff#	.	.
=312	=312	=312	=312	=312	=312	=312	=312	=312
(2BB	.	4G#	.	4r	.	4bb	.	I64
.	.	2r	.	4c#	.	4eee	.	.
2G#)	.	.	.	4B	.	2eee	.	I6
.	.	4b	.	4r	.	.	.	.
=313	=313	=313	=313	=313	=313	=313	=313	=313
(2BB	.	4d#	.	4r	.	4aa	.	V7
.	.	2r	.	4cc#	.	4ff#	.	.
2D#	.	.	.	4b	.	2ff#	.	V65
.	.	4A	.	4r	.	.	.	.
=314	=314	=314	=314	=314	=314	=314	=314	=314
2BB	.	4G#	.	4r	.	4bb	.	I64
.	.	2r	.	4c#	.	4gg#	.	.
2E)	.	.	.	4B	.	2gg#	.	I
.	.	4g#	.	4r	.	.	.	.
=315	=315	=315	=315	=315	=315	=315	=315	=315
(2BB	.	4d#	.	4r	.	4aa	.	V7
.	.	2r	.	4cc#	.	4ff#	.	.
2A)	.	.	.	4b	.	4ff#	.	V2
.	.	4d#	.	4r	.	4ff#	.	.
=316	=316	=316	=316	=316	=316	=316	=316	=316
(2BB	.	4e	.	4r	.	4gg#	.	I64
.	.	2r	.	4c#	.	4ee	.	.
2G#)	.	.	.	4B	.	2ee	.	I6
.	.	4BB	.	4B	.	.	.	.
=317	=317	=317	=317	=317	=317	=317	=317	=317
!LO:TX:b:i:t=cresc.	!	!LO:TX:b:i:t=cresc.	!	!	!	!	!	!
4AA	.	(2D#	.	1r	.	2r	.	V2
4FF#	.	.	.	.	.	.	.	.
!	!	!	!	!	!	!LO:TX:b:i:t=cresc.	!	!
2FF#	.	2B)	.	.	.	4aa	.	V43
.	.	.	.	.	.	4ff#	.	.
=318	=318	=318	=318	=318	=318	=318	=318	=318
!	!	!	!	!LO:TX:b:i:t=cresc.	!	!	!	!
4BB	.	1r	.	(2G#	.	2r	.	I64
4GG#	.	.	.	.	.	.	.	.
2GG#	.	.	.	2e)	.	4bb	.	I6
.	.	.	.	.	.	4gg#	.	.
=319	=319	=319	=319	=319	=319	=319	=319	=319
4AA	.	(2B	.	1r	.	2r	.	V2
4FF#	.	.	.	.	.	.	.	.
4FF#	.	2a)	.	.	.	4aa	.	V43
4FF#	.	.	.	.	.	4ff#	.	.
=320	=320	=320	=320	=320	=320	=320	=320	=320
4BB	.	2r	.	(2g#	.	2r	.	I64
4E	.	.	.	.	.	.	.	.
2E	.	(2G#	.	2ee)	.	4bb	.	I
.	.	.	.	.	.	4eee	.	.
=321	=321	=321	=321	=321	=321	=321	=321	=321
4EE	.	2AA#X	.	1r	.	2r	.	V2/V
4CC#	.	.	.	.	.	.	.	.
2CC#	.	2F#)	.	.	.	4ee	.	V43/V
.	.	.	.	.	.	4cc#	.	.
=322	=322	=322	=322	=322	=322	=322	=322	=322
4FF#	.	1r	.	(2D#	.	2r	.	V64
4DD#	.	.	.	.	.	.	.	.
2DD#	.	.	.	2B)	.	4ff#	.	V6
.	.	.	.	.	.	4dd#	.	.
=323	=323	=323	=323	=323	=323	=323	=323	=323
4EE	.	(2A#X	.	1r	.	2r	.	V2/V
4CC#	.	.	.	.	.	.	.	.
4CC#	.	2f#)	.	.	.	4ee	.	V43/V
4CC#	.	.	.	.	.	4cc#	.	.
=324	=324	=324	=324	=324	=324	=324	=324	=324
4FF#	.	2r	.	(2d#	.	2r	.	V64
4BB	.	.	.	.	.	.	.	.
2BB	.	(2d#	.	2b)	.	4ff#	.	V
.	.	.	.	.	.	4bb	.	.
=325	=325	=325	=325	=325	=325	=325	=325	=325
4EE	f	2A#X	f	1r	.	2r	.	V2/V
4CC#	.	.	.	.	.	.	.	.
4CC#	.	2f#)	.	.	.	4ee	f	V43/V
4CC#	.	.	.	.	.	4cc#	.	.
=326	=326	=326	=326	=326	=326	=326	=326	=326
!LO:TX:b:i:t=più	!	!	!	!	!	!	!	!
4FF#	f	2r	.	(2d#	f	2r	.	V64
4BB	.	.	.	.	.	.	.	.
!	!	!LO:TX:b:i:t=più	!	!LO:TX:b:i:t=più	!	!LO:TX:b:i:t=più	!	!
2BB	.	(2d#	f	2b)	f	4ff#	f	V
.	.	.	.	.	.	4bb	.	.
=327	=327	=327	=327	=327	=327	=327	=327	=327
4EE	ff	2A#X	.	(2f#	.	2r	.	I.V2
4CC#	.	.	.	.	.	.	.	.
4CC#	.	2f#)	ff	2ee)	ff	4ee	ff	V43
4CC#	.	.	.	.	.	4cc#	.	.
=328	=328	=328	=328	=328	=328	=328	=328	=328
1r	.	1r	.	1r	.	1r	.	.
=329	=329	=329	=329	=329	=329	=329	=329	=329
!	!	!	!	!LO:TX:a:t=pizz.	!	!	!	!
1r	.	1r	.	4e	.	2r	.	.
.	.	.	.	4r	.	.	.	.
!	!	!	!	!	!	!LO:TX:a:t=pizz.	!	!
.	.	.	.	2r	.	4e	.	.
.	.	.	.	.	.	4r	.	.
=330	=330	=330	=330	=330	=330	=330	=330	=330
1r	.	1r	.	2r	.	4c#	.	.
.	.	.	.	.	.	4r	.	.
.	.	.	.	4c#	.	2r	.	.
.	.	.	.	4r	.	.	.	.
=331	=331	=331	=331	=331	=331	=331	=331	=331
!	!	!LO:TX:a:t=pizz.	!	!	!	!	!	!
1r	.	4A#X	.	2r	.	1r	.	.
.	.	4r	.	.	.	.	.	.
.	.	2r	.	4A#X	.	.	.	.
.	.	.	.	4r	.	.	.	.
=332	=332	=332	=332	=332	=332	=332	=332	=332
!LO:TX:a:t=pizz.	!	!	!	!	!	!	!	!
4c#	.	2r	.	1r	.	1r	.	.
4r	.	.	.	.	.	.	.	.
2r	.	4c#	.	.	.	.	.	.
.	.	4r	.	.	.	.	.	.
=333	=333	=333	=333	=333	=333	=333	=333	=333
1r	.	4f#	.	1r	.	2r	.	I.I
.	.	4r	.	.	.	.	.	.
.	.	2r	.	.	.	4f#	.	.
.	.	.	.	.	.	4r	.	.
=334	=334	=334	=334	=334	=334	=334	=334	=334
1r	.	2r	.	4d#	.	1r	.	.
.	.	.	.	4r	.	.	.	.
.	.	4d#	.	2r	.	.	.	.
.	.	4r	.	.	.	.	.	.
=335	=335	=335	=335	=335	=335	=335	=335	=335
!LO:TX:a:t=arco	!	!	!	!	!	!	!	!
4FF#'	.	1r	.	2r	.	4B	.	.
4DD#'	.	.	.	.	.	4r	.	.
4BBB'	.	.	.	4B	.	2r	.	.
4DD#'	.	.	.	4r	.	.	.	.
=336	=336	=336	=336	=336	=336	=336	=336	=336
1r	.	4d#	.	2r	.	1r	.	.
.	.	4r	.	.	.	.	.	.
.	.	2r	.	4d#	.	.	.	.
.	.	.	.	4r	.	.	.	.
=337||	=337||	=337||	=337||	=337||	=337||	=337||	=337||	=337||
*k[f#c#g#d#a#]	*	*k[f#c#g#d#a#]	*	*k[f#c#g#d#a#]	*	*k[f#c#g#d#a#]	*	*
*B:	*	*B:	*	*B:	*	*B:	*	*
!	!	!LO:TX:a:t=arco	!	!LO:TX:a:t=arco	!	!LO:TX:a:t=arco	!	!
4B	p	4BB'	p	4D#'	p	4f#'	p	I
4r	.	4D#'	.	4F#'	.	4d#'	.	.
2r	.	4D#'	.	4F#'	.	4B'	.	.
.	.	4BB'	.	4D#'	.	4d#'	.	.
=338	=338	=338	=338	=338	=338	=338	=338	=338
4B	.	4BB	.	4D#	.	(2f#	.	.
4r	.	4D#	.	4F#	.	.	.	.
2r	.	4D#	.	4F#	.	2b)	.	.
.	.	4d#	.	4f#	.	.	.	.
=339	=339	=339	=339	=339	=339	=339	=339	=339
4F#	.	4c#	.	4e	.	4a#'	.	V7
4r	.	4B	.	4d#	.	4b'	.	.
2r	.	4A#	.	4c#	.	4cc#'	.	.
.	.	4G#	.	4B	.	4dd#'	.	.
=340	=340	=340	=340	=340	=340	=340	=340	=340
4F#	.	4F#	.	4A#	.	4ee	.	.
4r	.	4F#	.	4A#	.	4r	.	.
2r	.	4G#	.	4B	.	2r	.	.
.	.	4A#	.	4c#	.	.	.	.
=341	=341	=341	=341	=341	=341	=341	=341	=341
4B	.	4B	.	4d#	.	4dd#'	.	I
4r	.	4B	.	4d#	.	4cc#'	.	.
2r	.	4c#	.	4e	.	4b'	.	.
.	.	4d#	.	4f#	.	4a#'	.	.
=342	=342	=342	=342	=342	=342	=342	=342	=342
4E	.	4e	.	4g#	.	(2g#	.	IV
4r	.	4e	.	4b	.	.	.	.
2r	.	4e	.	4a#	.	2cc#)	.	ii6
.	.	4e	.	4g#	.	.	.	.
=343	=343	=343	=343	=343	=343	=343	=343	=343
4D#	f	4A#	f	4f##X	f	4dd#	f	V/vi
4d#	.	4f##X	.	4a#	.	4dd#	.	.
4d#	.	4f##	.	4a#	.	4dd#	.	.
4d#	.	4f##	.	4a#	.	4dd#	.	.
=344	=344	=344	=344	=344	=344	=344	=344	=344
4d#	.	4f##X	p	4a#	.	4dd#	.	.
4r	.	4D#	.	4d#	.	4r	.	.
2r	.	4D#	.	4d#	p	2r	.	.
.	.	4D#	.	4d#	.	.	.	.
=345	=345	=345	=345	=345	=345	=345	=345	=345
4B	p	4D#'	.	4d#'	.	4ff#'	p	I6
4r	.	4d#'	.	4f#'	.	4dd#'	.	.
2r	.	4d#'	.	4f#'	.	4b'	.	.
.	.	4B'	.	4d#'	.	4dd#'	.	.
=346	=346	=346	=346	=346	=346	=346	=346	=346
4B	.	4B	.	4d#	.	(2ff#	.	I
4r	.	4f#	.	4dd#	.	.	.	.
2r	.	4d#	.	4f#	.	2bb)	.	.
.	.	4B	.	4d#	.	.	.	.
=347	=347	=347	=347	=347	=347	=347	=347	=347
4F#	.	4c#	.	4e	.	4aa#'	.	V7
4r	.	4B	.	4d#	.	4bb'	.	.
2r	.	4A#	.	4c#	.	4ccc#'	.	.
.	.	4G#	.	4B	.	4ddd#'	.	.
=348	=348	=348	=348	=348	=348	=348	=348	=348
4F#	.	4F#	.	4A#	.	4eee	.	.
4F#	.	4f#	.	4a#	.	4r	.	.
4G#	.	4f#	.	4b	.	2r	.	.
4A#	.	4f#	.	4cc#	.	.	.	.
=349	=349	=349	=349	=349	=349	=349	=349	=349
!LO:TX:b:i:t=sempre	!	!LO:TX:b:i:t=sempre	!	!LO:TX:b:i:t=sempre	!	!LO:TX:b:i:t=sempre	!	!
4B	.	4f#	.	4dd#	.	4ddd#'	.	I
4B	.	4b	.	4dd#	.	4ccc#'	.	.
4c#	p	4b	p	4ee	p	4bb'	p	.
4d#	.	4f#	.	4ff#	.	4aa#'	.	.
=350	=350	=350	=350	=350	=350	=350	=350	=350
4e	.	4g#	.	4b	.	(2gg#	.	IV
4e	.	4g#	.	4cc#	.	.	.	.
4e	.	4g#	.	4cc#	.	2ccc#)	.	ii
4e	.	4g#	.	4cc#	.	.	.	.
=351	=351	=351	=351	=351	=351	=351	=351	=351
4d#	.	4f##X	.	4a#	.	4ddd#	.	V/vi
4d#	.	4f##	.	4a#	.	4ddd#	.	.
4d#	.	4f##	.	4a#	.	4ddd#	.	.
4d#	.	4f##	.	4a#	.	4ddd#	.	.
=352	=352	=352	=352	=352	=352	=352	=352	=352
4d#	.	4f##X	.	4a#	.	4ddd#	.	.
4r	.	4D#	.	4d#	.	4r	.	.
2r	.	4D#	.	4d#	.	2r	.	.
.	.	4D#	.	4d#	.	.	.	.
=353	=353	=353	=353	=353	=353	=353	=353	=353
!	!	!	!LO:DY:a	!	!LO:DY:a	!	!	!
4d#	pp	4D#'	pp pp	4F##X'	pp	4a#'	.	.
4r	.	4F##X'	.	4A#'	.	4f##X'	.	.
2r	.	4F##'	.	4A#'	.	4d#'	.	.
.	.	4D#'	.	4F##'	.	4f##'	.	.
=354	=354	=354	=354	=354	=354	=354	=354	=354
!LO:TX:b:i:t=sempre	!	!LO:TX:b:i:t=sempre	!	!LO:TX:b:i:t=sempre	!	!LO:TX:b:i:t=sempre	!	!
4D#	.	4D#	.	4F##X	.	(2a#	.	.
4r	.	4F##X	.	4A#	.	.	.	.
2r	pp	4F##	pp	4A#	pp	2dd#)	pp	.
.	.	4D#	.	4F##	.	.	.	.
=355	=355	=355	=355	=355	=355	=355	=355	=355
4G#	.	4D#	.	4G#	.	4b'	.	vi64
4r	.	4G#	.	4B	.	4g#'	.	.
2r	.	4G#	.	4B	.	4d#'	.	.
.	.	4D#	.	4G#	.	4g#'	.	.
=356	=356	=356	=356	=356	=356	=356	=356	=356
4GG#	.	4E	.	4G#	.	(2b	.	IV6
4r	.	4G#	.	4B	.	.	.	.
2r	.	4G#	.	4B	.	2ee)	.	.
.	.	4E	.	4G#	.	.	.	.
=357	=357	=357	=357	=357	=357	=357	=357	=357
4C#	.	4F#	.	4c#	.	4cc#'	.	V
4r	.	4A#	.	4c#	.	4a#'	.	.
2r	.	4A#	.	4c#	.	4f#'	.	.
.	.	4F#	.	4A#	.	4a#'	.	.
=358	=358	=358	=358	=358	=358	=358	=358	=358
4AA#	.	4F#	.	4c#	.	(2cc#	.	V6
4r	.	4A#	.	4c#	.	.	.	.
2r	.	4A#	.	4c#	.	[2ff#)	.	.
.	.	4F#	.	4A# 4c#	.	.	.	.
=359	=359	=359	=359	=359	=359	=359	=359	=359
1r	.	1r	.	1r	.	4ff#]	.	V
.	.	.	.	.	.	(4cc#	.	.
.	.	.	.	.	.	[2ff#)	.	.
=360	=360	=360	=360	=360	=360	=360	=360	=360
1r	.	1r	.	4r	.	4ff#]	.	.
.	.	.	.	(4c#	.	4r	.	.
.	.	.	.	[2f#)	.	2r	.	.
=361	=361	=361	=361	=361	=361	=361	=361	=361
1r	.	4r	.	4f#]	.	1r	.	.
.	.	(4C#	.	4r	.	.	.	.
.	.	[2F#)	.	2r	.	.	.	.
=362	=362	=362	=362	=362	=362	=362	=362	=362
4r	.	4F#]	.	1r	.	1r	.	.
(4CC#	.	4r	.	.	.	.	.	.
[2FF#)	.	2r	.	.	.	.	.	.
=363	=363	=363	=363	=363	=363	=363	=363	=363
4FF#]	.	1r	.	1r	.	4r	.	i6
4r	.	.	.	.	.	(4dd	.	.
2r	.	.	.	.	.	[2ff#)	.	.
=364	=364	=364	=364	=364	=364	=364	=364	=364
1r	.	1r	.	4r	.	4ff#]	.	.
.	.	.	.	(4d	.	4r	.	.
.	.	.	.	[2f#)	.	2r	.	.
=365	=365	=365	=365	=365	=365	=365	=365	=365
1r	.	4r	.	4f#]	.	1r	.	.
.	.	(4D	.	4r	.	.	.	.
.	.	[2F#)	.	2r	.	.	.	.
=366	=366	=366	=366	=366	=366	=366	=366	=366
4r	.	4F#]	.	1r	.	1r	.	.
(4DD	.	4r	.	.	.	.	.	.
[2FF#)	.	2r	.	.	.	.	.	.
=367	=367	=367	=367	=367	=367	=367	=367	=367
!	!	!	!	!	!	!LO:TX:a:i:t=Molto poco adagio.	!	!
4FF#]	.	1r	.	1r	.	4r	.	iii.i
4r	.	.	.	.	.	8r	.	.
.	.	.	.	.	.	(8dd#	.	.
2r	.	.	.	.	.	4ff#)	.	.
.	.	.	.	.	.	[4ff#	.	.
=368	=368	=368	=368	=368	=368	=368	=368	=368
1r	.	1r	.	4r	.	4ff#]	.	.
.	.	.	.	8r	.	4r	.	.
.	.	.	.	(8d#	.	.	.	.
.	.	.	.	4f#)	.	2r	.	.
.	.	.	.	[4f#	.	.	.	.
=369	=369	=369	=369	=369	=369	=369	=369	=369
1r	.	4r	.	4f#]	.	1r	.	.
.	.	8r	.	4r	.	.	.	.
.	.	(8D#	.	.	.	.	.	.
.	.	4F#)	.	2r	.	.	.	.
.	.	[4F#	.	.	.	.	.	.
=370	=370	=370	=370	=370	=370	=370	=370	=370
!LO:TX:a:i:t=un poco più adagio	!	!	!	!	!	!	!	!
4r	.	4F#]	.	1r	.	1r	.	.
8r	.	4r	.	.	.	.	.	.
(8DD#	.	.	.	.	.	.	.	.
4FF#)	.	2r	.	.	.	.	.	.
(4FF#	.	.	.	.	.	.	.	.
=371	=371	=371	=371	=371	=371	=371	=371	=371
!	!	!	!	!	!	!LO:TX:a:B:t=Tempo I.	!	!
4AA#')	pp	2r	.	1r	.	1r	.	.
4FF#'	.	.	.	.	.	.	.	.
4DD#'	.	4A#'	pp	.	.	.	.	.
4FF#'	.	4F#'	.	.	.	.	.	.
=372	=372	=372	=372	=372	=372	=372	=372	=372
4AA#	.	4D#'	.	4A#'	pp	2r	.	i64
4r	.	4F#'	.	4F#'	.	.	.	.
!	!	!	!	!	!LO:DY:a	!	!	!
4D#	.	2r	.	4D#'	pp	4A#'	.	.
4r	.	.	.	4F#'	.	4F#'	.	.
=373	=373	=373	=373	=373	=373	=373	=373	=373
4F#	.	4A#	.	2r	.	4D#'	.	i6
4r	.	4F#	.	.	.	4F#'	.	.
4A#	.	4D#	.	4A#	.	2r	.	.
4r	.	4F#	.	4F#	.	.	.	.
=374	=374	=374	=374	=374	=374	=374	=374	=374
4d#	.	2r	.	4D#	.	4A#	.	i
4r	.	.	.	4F#	.	4F#	.	.
4d#	.	4A#	.	2r	.	4D#	.	.
4r	.	4F#	.	.	.	4F#	.	.
=375	=375	=375	=375	=375	=375	=375	=375	=375
4d#	.	4D#	.	2r	.	4a#	.	.
4r	.	4F#	.	.	.	4f#	.	.
2r	.	4F#	.	4A#	.	4d#	.	.
.	.	4D#	.	4F#	.	4f#	.	.
=376	=376	=376	=376	=376	=376	=376	=376	=376
4d#	.	4d#	.	4f#	.	(2a#	.	.
4r	.	4f#	.	4a#	.	.	.	.
2r	.	4f#	.	4a#	.	2dd#)	.	i6
.	.	4f#	.	4a#	.	.	.	.
=377	=377	=377	=377	=377	=377	=377	=377	=377
4A#	.	4e#X	.	4g#	.	4cc##X	.	V7
4r	.	4d#	.	4f#	.	4dd#	.	.
2r	.	4A#	.	4c##X	.	4ee#X	.	.
.	.	4A#	.	4d#	.	4ff#	.	.
=378	=378	=378	=378	=378	=378	=378	=378	=378
!LO:TX:b:i:t=rit.	!	!LO:TX:b:i:t=rit.	!	!LO:TX:b:i:t=rit.	!	!LO:TX:b:i:t=rit.	!	!
4A#	.	4c##X	.	4e#X	.	4gg#	.	.
4A#	.	4d#	.	4f#	.	4ff#	.	.
4A#	.	4e#X	.	4cc##X	.	4ee#X	.	.
4A#;	.	4e#;	.	4cc##;	.	4gg#;	.	.
=379	=379	=379	=379	=379	=379	=379	=379	=379
!	!LO:DY:a	!	!LO:DY:a	!	!LO:DY:a	!LO:TX:a:B:t=in tempo	!LO:DY:a	!
4B	p	4d#'	p	4dd#'	p	4ff#'	p	I.I
4r	.	4d#'	.	4f#'	.	4dd#'	.	.
2r	.	4d#'	.	4f#'	.	4b'	.	.
.	.	4B'	.	4d#'	.	4dd#'	.	.
=380	=380	=380	=380	=380	=380	=380	=380	=380
!LO:TX:b:i:t=sempre	!	!LO:TX:b:i:t=sempre	!	!LO:TX:b:i:t=sempre	!	!LO:TX:b:i:t=sempre	!	!
4B	.	4B	.	4d#	.	(2ff#	.	I
4r	.	4d#	.	4f#	.	.	.	.
2r	pp	4d#	pp	4f#	pp	2bb)	pp	.
.	.	4B	.	4d#	.	.	.	.
=381	=381	=381	=381	=381	=381	=381	=381	=381
4F#	.	4c#	.	4e	.	4aa#'	.	V7
4r	.	4B	.	4d#	.	4bb'	.	.
2r	.	4A#	.	4c#	.	4ccc#'	.	.
.	.	4G#	.	4B	.	4ddd#'	.	.
=382	=382	=382	=382	=382	=382	=382	=382	=382
4F#	.	4F#	.	4A#	.	4eee	.	.
4F#	.	4f#	.	4a#	.	4r	.	.
4G#	.	4f#	.	4b	.	2r	.	.
4A#	.	4f#	.	4cc#	.	.	.	.
=383	=383	=383	=383	=383	=383	=383	=383	=383
4B	.	4f#	.	4b	.	4ddd#'	.	I
4B	.	4d#	.	4b	.	4ccc#'	.	.
4c#	.	4e	.	4b	.	4bb'	.	.
4d#	.	4f#	.	4b	.	4aa#'	.	.
=384	=384	=384	=384	=384	=384	=384	=384	=384
4e	.	4g#	.	4b	.	(2gg#	.	.
*clefF4	*	*	*	*	*	*	*	*
4E	.	4B	.	4g#	.	.	.	.
4E#X	.	4B	.	4g#	.	2ccc#)	.	V65/V
4r	.	4G#	.	4c#	.	.	.	.
=385	=385	=385	=385	=385	=385	=385	=385	=385
4F#	.	4A#	.	4c#	.	4aa#'	.	V
4r	.	4c#	.	4f#	.	4bb'	.	.
4C#	.	4c#	.	4fX	.	4gg#'	.	V/V
4r	.	4c#	.	4e	.	4aa#'	.	V43
=386	=386	=386	=386	=386	=386	=386	=386	=386
4E	.	4A#	.	4c#	.	(2ff#	.	V2
4r	.	4A#	.	4c#	.	.	.	.
4D#	.	4F#	.	4B	.	2bb)	.	I6
4r	.	4d#	.	4f#	.	.	.	.
=387	=387	=387	=387	=387	=387	=387	=387	=387
4F#	.	4d#	.	4f#	.	4bb'	.	V(64)
4r	.	4c#	.	4ee	.	4aa#'	.	.
4FF#	.	4c#	.	4ee	.	4gg#'	.	V7
4r	.	4c#	.	4ee	.	4aa#'	.	.
=388	=388	=388	=388	=388	=388	=388	=388	=388
4BB	.	4F#	.	4dd#	.	4bb	.	I
*clefC4	*	*	*	*	*	*	*	*
4c#	.	4e	.	4f#	.	4a#	.	.
4B	.	4d#	.	4f#	.	4b	.	.
4A#	.	4c#	.	4f#	.	4cc#	.	.
=389	=389	=389	=389	=389	=389	=389	=389	=389
4B	.	4d#	.	4f#	.	(4dd#	.	.
4E	.	4F#	.	4f#	.	4cc#)	.	.
4D#	.	4F#	.	4f#	.	4b'	.	.
4r	.	4B	.	4f#	.	4a#'	.	.
=390	=390	=390	=390	=390	=390	=390	=390	=390
!LO:TX:b:i:t=sempre	!	!LO:TX:b:i:t=sempre	!	!LO:TX:b:i:t=sempre	!	!LO:TX:b:i:t=sempre	!	!
4E	.	4B	.	4e	.	(4g#	.	IV
4r	.	4G#	.	4c#	.	4a#)	.	.
4E#X	pp	4G#	pp	4c#	pp	4b'	pp	V65/V
4r	.	4c#	.	4g#	.	4cc#'	.	.
=391	=391	=391	=391	=391	=391	=391	=391	=391
4F#	.	4c#	.	4f#	.	(4a#	.	V
4r	.	4c#	.	4f#	.	4b)	.	.
4C#	.	4c#	.	4e#X	.	4g#'	.	V/V
4r	.	4c#	.	4e	.	4a#'	.	V43
=392	=392	=392	=392	=392	=392	=392	=392	=392
4E	.	4A#	.	4c#	.	(4f#	.	V2
4r	.	4A#	.	4c#	.	4g#)	.	.
4D#	.	4F#	.	4c#	.	4a#'	.	I6
4r	.	4D#	.	4d#	.	4b'	.	.
=393	=393	=393	=393	=393	=393	=393	=393	=393
4F#	.	4D#	.	4F#	.	(4b	.	.
4FF#	.	4C#	.	4E	.	4a#)	.	.
4FF#	.	4C#	.	4e	.	4g#'	.	V7
4FF#	.	4c#	.	4e	.	4a#'	.	.
=394	=394	=394	=394	=394	=394	=394	=394	=394
4D#	.	4F#	.	4B	.	(4cc#	.	I6
4DD#	.	4D#	.	4F#	.	4b)	.	.
4DD#	.	4d#	.	4f#	.	4a#'	.	.
4DD#	.	4d#	.	4f#	.	4b'	.	.
=395	=395	=395	=395	=395	=395	=395	=395	=395
4AA#	.	4c#	.	4f#	.	(4dd#	.	V65
4AAA#	.	4F#	.	4f#	.	4cc#)	.	.
4AAA#	.	4F#	.	4f#	.	4b#X'	.	.
4AAA#	.	4F#	.	4f#	.	4cc#'	.	.
=396	=396	=396	=396	=396	=396	=396	=396	=396
4BB	.	4F#	.	4f#	.	(4ee	.	I
4BBB	.	4F#	.	4f#	.	4dd#)	.	.
4BBB	.	4F#	.	4f#	.	4cc#'	.	.
4BBB	.	4F#	.	4f#	.	4dd#'	.	.
=397	=397	=397	=397	=397	=397	=397	=397	=397
4G#	.	4B	.	4e	.	(4ff#	.	IV6
4GG#	.	4G# 4B	.	4g# 4b	.	4ee)	.	.
4GG#	.	4G# 4B	.	4g# 4b	.	4dd#'	.	.
4GG#	.	4G# 4B	.	4g# 4b	.	4ee'	.	.
=398	=398	=398	=398	=398	=398	=398	=398	=398
4D#	.	4F# 4B	.	4f# 4b	.	(4gg#	.	I6
4DD#	.	4F# 4B	.	4f# 4b	.	4ff#)	.	.
4DD#	.	4F# 4B	.	4f# 4b	.	4ee#X'	.	.
4DD#	.	4F# 4B	.	4f# 4b	.	4ff#'	.	.
=399	=399	=399	=399	=399	=399	=399	=399	=399
4EE	.	4G# 4B	.	4g# 4b	.	(4aa	.	IV(6)
4EE#X	.	4G# 4c#	.	4g# 4b	.	4gg#)	.	V65/V
4FF#	.	4F# 4d#	.	4f# 4b	.	4bb'	.	V(64)
4FF#	.	4F# 4e	.	4c# 4a#	.	4aa#X'	.	V7
=400	=400	=400	=400	=400	=400	=400	=400	=400
4BB	.	4F# 4d#	.	4B 4b	.	4bb	.	I\\
2r	.	4D#'	.	4d#'	.	4r	.	.
.	.	4D#'	.	4d#'	.	2r	.	.
4d#	.	4F##X'	.	4A#'	.	.	.	.
=401	=401	=401	=401	=401	=401	=401	=401	=401
!LO:TX:b:i:t=cresc.	!	!LO:TX:b:i:t=cresc.	!	!LO:TX:b:i:t=cresc.	!	!LO:TX:b:i:t=cresc.	!	!
4d#	.	4D#	.	4F##X	.	4a#'	.	V/vi
4r	.	4F##X	.	4A#	.	4g'	.	.
2r	.	4F##	.	4A#	.	4d#'	.	.
.	.	4D#	.	4F##	.	4g'	.	.
=402	=402	=402	=402	=402	=402	=402	=402	=402
4D#	.	4D#	.	4F##X	.	(2a#	.	.
4r	.	4F##X	.	4A#	.	.	.	.
2r	.	4F##	.	4A#	.	2dd#)	.	.
.	.	4D#	.	4F##	.	.	.	.
=403	=403	=403	=403	=403	=403	=403	=403	=403
4G#	.	4D#	.	4G#	.	4b'	.	vi64
4r	.	4G#	.	4B	.	4g#'	.	.
2r	.	4G#	.	4B	.	4d#'	.	.
.	.	4D#	.	4G#	.	4g#'	.	.
=404	=404	=404	=404	=404	=404	=404	=404	=404
4GG#	.	4E	.	4G#	.	(2b	.	IV
4r	.	4G#	.	4B	.	.	.	.
2r	.	4G#	.	4B	.	2ee)	.	.
.	.	4E	.	4G#	.	.	.	.
=405	=405	=405	=405	=405	=405	=405	=405	=405
4C#	.	4F#	.	4c#	.	4cc#'	.	V64
4r	.	4A#	.	4c#	.	4a#'	.	.
2r	.	4A#	.	4c#	.	4f#'	.	.
.	.	4F#	.	4A#	.	4a#'	.	.
=406	=406	=406	=406	=406	=406	=406	=406	=406
4AA#	.	4F#	.	4c#	.	(2cc#	.	V6
4r	.	4A#	.	4c#	.	.	.	.
2r	.	4A#	.	4c#	.	[2ff#)	.	.
.	.	4F#	.	4A# 4c#	.	.	.	.
=407	=407	=407	=407	=407	=407	=407	=407	=407
1r	.	1r	.	1r	.	4ff#]	.	V
.	.	.	.	.	.	(4cc#	.	.
.	.	.	.	.	.	[2ff#)	.	.
=408	=408	=408	=408	=408	=408	=408	=408	=408
1r	.	1r	.	4r	.	4ff#]	.	.
.	.	.	.	(4c#	.	4r	.	.
.	.	.	.	[2f#)	.	2r	.	.
=409	=409	=409	=409	=409	=409	=409	=409	=409
1r	.	4r	.	4f#]	.	1r	.	.
.	.	(4C#	.	4r	.	.	.	.
.	.	[2F#)	.	2r	.	.	.	.
=410	=410	=410	=410	=410	=410	=410	=410	=410
4r	.	4F#]	.	1r	.	1r	.	.
(4CC#	.	4r	.	.	.	.	.	.
[2FF#)	.	2r	.	.	.	.	.	.
=411	=411	=411	=411	=411	=411	=411	=411	=411
4FF#]	.	1r	.	1r	.	4r	.	i6
4r	.	.	.	.	.	(4dd	.	.
!	!	!	!	!	!	!LO:TX:b:i:t=dim.	!	!
2r	.	.	.	.	.	[2ff#)	.	.
=412	=412	=412	=412	=412	=412	=412	=412	=412
1r	.	1r	.	4r	.	4ff#]	.	.
.	.	.	.	(4d	.	4r	.	.
!	!	!	!	!LO:TX:b:i:t=dim.	!	!	!	!
.	.	.	.	[2f#)	.	2r	.	.
=413	=413	=413	=413	=413	=413	=413	=413	=413
1r	.	4r	.	4f#]	.	1r	.	.
.	.	(4D	.	4r	.	.	.	.
!	!	!LO:TX:b:i:t=dim.	!	!	!	!	!	!
.	.	[2F#)	.	2r	.	.	.	.
=414	=414	=414	=414	=414	=414	=414	=414	=414
4r	.	4F#]	.	1r	.	1r	.	.
(4DD	.	4r	.	.	.	.	.	.
!LO:TX:b:i:t=dim.	!	!	!	!	!	!	!	!
[2FF#)	.	2r	.	.	.	.	.	.
=415	=415	=415	=415	=415	=415	=415	=415	=415
!	!	!	!	!	!	!LO:TX:a:i:t=Molto poco adagio.	!	!
4FF#]	.	1r	.	1r	.	4r	.	iii.i
4r	.	.	.	.	.	8r	.	.
.	.	.	.	.	.	(8dd#	.	.
!	!	!	!	!	!	!LO:TX:a:i:t=piu p	!	!
2r	.	.	.	.	.	4ff#)	.	.
.	.	.	.	.	.	[4ff#	.	.
=416	=416	=416	=416	=416	=416	=416	=416	=416
!	!	!	!	!LO:TX:b:i:t=piu p	!	!	!	!
1r	.	1r	.	4r	.	4ff#]	.	.
.	.	.	.	8r	.	4r	.	.
.	.	.	.	(8d#	.	.	.	.
.	.	.	.	4f#)	.	2r	.	.
.	.	.	.	[4f#	.	.	.	.
=417	=417	=417	=417	=417	=417	=417	=417	=417
!	!	!LO:TX:b:i:t=piu p	!	!	!	!	!	!
1r	.	4r	.	4f#]	.	1r	.	.
.	.	8r	.	4r	.	.	.	.
.	.	(8D#	.	.	.	.	.	.
.	.	4F#)	.	2r	.	.	.	.
.	.	[4F#	.	.	.	.	.	.
=418	=418	=418	=418	=418	=418	=418	=418	=418
!LO:TX:a:i:t=un poco più adagio	!	!	!	!	!	!	!	!
4r	.	4F#]	.	1r	.	1r	.	.
8r	.	4r	.	.	.	.	.	.
(8DD#	.	.	.	.	.	.	.	.
!LO:TX:b:i:t=piu p	!	!	!	!	!	!	!	!
4FF#)	.	2r	.	.	.	.	.	.
(4FF#	.	.	.	.	.	.	.	.
=419	=419	=419	=419	=419	=419	=419	=419	=419
!	!	!	!	!	!	!LO:TX:a:B:t=Tempo I.	!	!
4AA#')	pp	2r	.	1r	.	1r	.	.
4FF#'	.	.	.	.	.	.	.	.
4DD#'	.	4A#'	pp	.	.	.	.	.
4FF#'	.	4F#'	.	.	.	.	.	.
=420	=420	=420	=420	=420	=420	=420	=420	=420
!	!	!	!LO:DY:a	!	!	!	!	!
4AA#	.	4D#'	pp	4A#'	.	2r	.	i64
4r	.	4F#'	.	4F#'	.	.	.	.
!	!	!	!	!	!LO:DY:a	!	!	!
4D#	.	2r	.	4D#'	pp	4A#'	.	.
4r	.	.	.	4F#'	.	4F#'	.	.
=421	=421	=421	=421	=421	=421	=421	=421	=421
4F#	.	4A#	.	2r	.	4D#'	.	i6
4r	.	4F#	.	.	.	4F#'	.	.
4A#	.	4D#	.	4A#	.	2r	.	.
4r	.	4F#	.	4F#	.	.	.	.
=422	=422	=422	=422	=422	=422	=422	=422	=422
4d#	.	2r	.	4D#	.	4A#	.	i
4r	.	.	.	4F#	.	4F#	.	.
4d#	.	4A#	.	2r	.	4D#	.	.
4r	.	4F#	.	.	.	4F#	.	.
=423	=423	=423	=423	=423	=423	=423	=423	=423
4d#	.	4D#	.	2r	.	4a#	.	.
4r	.	4F#	.	.	.	4f#	.	.
2r	.	4F#	.	4A#	.	4d#	.	.
.	.	4D#	.	4F#	.	4f#	.	.
=424	=424	=424	=424	=424	=424	=424	=424	=424
4d#	.	4d#	.	4f#	.	(2a#	.	.
4r	.	4f#	.	4a#	.	.	.	.
2r	.	4f#	.	4a#	.	2dd#)	.	i6
.	.	4f#	.	4a#	.	.	.	.
=425	=425	=425	=425	=425	=425	=425	=425	=425
4A#	.	4e#X	.	4g#	.	4cc##X	.	V7
4r	.	4d#	.	4f#	.	4dd#	.	.
2r	.	4A#	.	4c##X	.	4ee#X	.	.
.	.	4A#	.	4d#	.	4ff#	.	.
=426	=426	=426	=426	=426	=426	=426	=426	=426
!LO:TX:b:i:t=rit.	!	!LO:TX:b:i:t=rit.	!	!LO:TX:b:i:t=rit.	!	!LO:TX:b:i:t=rit.	!	!
4A#	.	4c##X	.	4e#X	.	4gg#	.	.
4A#	.	4d#	.	4f#	.	4ff#	.	.
4A#	.	4e#X	.	4cc##X	.	4ee#X	.	.
4A#;	.	4e#;	.	4cc##;	.	4gg#;	.	.
=427	=427	=427	=427	=427	=427	=427	=427	=427
!	!	!	!	!	!	!LO:TX:a:B:t=in tempo	!	!
4B	f	4d#'	f	4dd#'	f	4ff#'	f	I.I
4r	.	4d#'	.	4f#'	.	4dd#'	.	.
2r	.	4d#'	.	4f#'	.	4b'	.	.
.	.	4B'	.	4d#'	.	4dd#'	.	.
=428	=428	=428	=428	=428	=428	=428	=428	=428
4B	.	4B	.	4d#	.	(2ff#	.	I
4r	.	4d#	.	4f#	.	.	.	.
2r	.	4d#	.	4f#	.	2bb)	.	.
.	.	4B	.	4d#	.	.	.	.
=429	=429	=429	=429	=429	=429	=429	=429	=429
4F#	.	4c#	.	4e	.	4aa#'	.	V7
4r	.	4B	.	4d#	.	4bb'	.	.
2r	.	4A#	.	4c#	.	4ccc#'	.	.
.	.	4G#	.	4B	.	4ddd#'	.	.
=430	=430	=430	=430	=430	=430	=430	=430	=430
4F#	.	4F#	.	4A#	.	4eee	.	.
4F#	.	4f#	.	4a#	.	4r	.	.
4G#	.	4f#	.	4b	.	2r	.	.
4A#	.	4f#	.	4cc#	.	.	.	.
=431	=431	=431	=431	=431	=431	=431	=431	=431
4B	.	4f#	.	4b	.	4ddd#'	.	I
4B	.	4d#	.	4b	.	4ccc#'	.	.
4c#	.	4e	.	4b	.	4bb'	.	.
4d#	.	4f#	.	4b	.	4aa#'	.	.
=432	=432	=432	=432	=432	=432	=432	=432	=432
4e	.	4g#	.	4b	.	(2gg#	.	IV
*clefF4	*	*	*	*	*	*	*	*
4E	.	4B	.	4g#	.	.	.	.
4E#X	.	4B	.	4g#	.	2ccc#)	.	V65/V
4r	.	4G#	.	4c#	.	.	.	.
=433	=433	=433	=433	=433	=433	=433	=433	=433
4F#	.	4A#	.	4c#	.	4aa#'	.	V
4r	.	4c#	.	4f#	.	4bb'	.	.
4C#	.	4c#	.	4e#X	.	4gg#'	.	V7/V
4r	.	4c#	.	4e	.	4aa#'	.	V43
=434	=434	=434	=434	=434	=434	=434	=434	=434
4E	.	4A#	.	4c#	.	(2ff#	.	V2
4r	.	4A#	.	4c#	.	.	.	.
4D#	.	4F#	.	4B	.	2bb)	.	I6
4r	.	4d#	.	4f#	.	.	.	.
=435	=435	=435	=435	=435	=435	=435	=435	=435
4F#	.	4d#	.	4f#	.	4bb'	.	V(64)
4r	.	4c#	.	4ee	.	4aa#'	.	.
4FF#	.	4c#	.	4ee	.	4gg#'	.	V7
4r	.	4c#	.	4ee	.	4aa#'	.	.
=436	=436	=436	=436	=436	=436	=436	=436	=436
4BB	p	4F#	p	4dd#	p	4bb	p	I
*clefC4	*	*	*	*	*	*	*	*
4c#	.	4e	.	4f#	.	4a#	.	.
4B	.	4d#	.	4f#	.	4b	.	.
4A#	.	4c#	.	4f#	.	4cc#	.	.
=437	=437	=437	=437	=437	=437	=437	=437	=437
4B	.	4d#	.	4f#	.	(4dd#	.	.
4E	.	4F#	.	4f#	.	4cc#)	.	.
4D#	.	4F#	.	4f#	.	4b'	.	.
4r	.	4B	.	4f#	.	4a#'	.	.
=438	=438	=438	=438	=438	=438	=438	=438	=438
4E	.	4B	.	4e	.	(4g#	.	IV
4r	.	4G#	.	4c#	.	4a#)	.	.
4E#X	.	4G#	.	4c#	.	4b'	.	V65/V
4r	.	4c#	.	4g#	.	4cc#'	.	.
=439	=439	=439	=439	=439	=439	=439	=439	=439
!LO:TX:b:i:t=cresc.	!	!LO:TX:b:i:t=cresc.	!	!LO:TX:b:i:t=cresc.	!	!LO:TX:b:i:t=cresc.	!	!
4F#	.	4c#	.	4f#	.	(4a#	.	V
4r	.	4c#	.	4f#	.	4b)	.	.
4C#	.	4c#	.	4e#X	.	4g#'	.	V/V
4r	.	4c#	.	4e	.	4a#'	.	V43
=440	=440	=440	=440	=440	=440	=440	=440	=440
4E	.	4A#	.	4c#	.	(4f#	.	V2
4r	.	4A#	.	4c#	.	4g#)	.	.
4D#	.	4F#	.	4c#	.	4a#'	.	I6
4r	.	4D#	.	4d#	.	4b'	.	.
=441	=441	=441	=441	=441	=441	=441	=441	=441
4F#	.	4D#	.	4F#	.	(4b	.	.
4FF#	.	4C#	.	4E	.	4a#)	.	.
4FF#	.	4C#	.	4e	.	4g#'	.	V7
4FF#	.	4c#	.	4e	.	4a#'	.	.
=442	=442	=442	=442	=442	=442	=442	=442	=442
4D#	.	4F#	.	4B	.	(4cc#	.	I6
4DD#	.	4D#	.	4F#	.	4b)	.	.
4DD#	.	4d#	.	4f#	.	4a#'	.	.
4DD#	.	4d#	.	4f#	.	4b'	.	.
=443	=443	=443	=443	=443	=443	=443	=443	=443
4AA#	f	4c#	f	4f#	f	(4dd#	f	V65
4AAA#	.	4F#	.	4f#	.	4cc#)	.	.
4AAA#	.	4F#	.	4f#	.	4b#X'	.	.
4AAA#	.	4F#	.	4f#	.	4cc#'	.	.
=444	=444	=444	=444	=444	=444	=444	=444	=444
4BB	sf	4F#	sf	4f#	sf	(4ee	sf	I
4BBB	.	4F#	.	4f#	.	4dd#)	.	.
4BBB	.	4F#	.	4f#	.	4cc#'	.	.
4BBB	.	4F#	.	4f#	.	4dd#'	.	.
=445	=445	=445	=445	=445	=445	=445	=445	=445
4G#	f	4B	f	4e	f	(4ff#	f	IV6
4GG#	.	4G# 4B	.	4g# 4b	.	4ee)	.	.
4GG#	.	4G# 4B	.	4g# 4b	.	4dd#'	.	.
4GG#	.	4G# 4B	.	4g# 4b	.	4ee'	.	.
=446	=446	=446	=446	=446	=446	=446	=446	=446
4D#	f	4F# 4B	f	4f# 4b	f	(4gg#	f	I6
4DD#	.	4F# 4B	.	4f# 4b	.	4ff#)	.	.
4DD#	.	4F# 4B	.	4f# 4b	.	4ee#X'	.	.
4DD#	.	4F# 4B	.	4f# 4b	.	4ff#'	.	.
=447	=447	=447	=447	=447	=447	=447	=447	=447
!	!LO:DY:a	!	!	!	!	!	!	!
4EE	f f	4G# 4B	.	4g# 4b	f	(4aa	f	IV(6)
4EE#X	.	4G# 4c#	.	4g# 4b	.	4gg#)	.	V65/V
4FF#	.	4F# 4d#	.	4f# 4b	.	4bb'	.	V(64)
4FF#	.	4F# 4e	.	4c# 4a#	.	4aa#X'	.	V7
=448	=448	=448	=448	=448	=448	=448	=448	=448
4BB	.	4F# 4d#	p	4B 4b	.	4bb	.	I\\
2r	.	4B	.	4r	.	4r	.	.
.	.	4F#	.	2r	.	2r	.	.
4F#	p	4r	.	.	.	.	.	.
=449	=449	=449	=449	=449	=449	=449	=449	=449
!	!	!	!LO:DY:a	!LO:TX:b:i:t=piacevole	!	!LO:TX:b:i:t=piacevole	!	!
4BB	.	4r	p	(2D#	.	(2d#	p	I
2r	.	4B	.	.	.	.	.	.
.	.	4F#	.	2E	.	2e	.	V7
4F#	.	4r	.	.	.	.	.	.
=450	=450	=450	=450	=450	=450	=450	=450	=450
4BB	.	4r	.	2F#	.	2f#	.	I
2r	.	4B	.	.	.	.	.	.
.	.	4F#	.	2B)	.	2b)	.	I64
4F#	.	4r	.	.	.	.	.	.
=451	=451	=451	=451	=451	=451	=451	=451	=451
4BB	.	4r	.	(4c#	.	(4cc#	.	I
2r	.	4B	.	4d#	.	4dd#	.	.
.	.	4F#	.	4e	.	4ee	.	V7
4F#	.	4r	.	4c#)	.	4cc#)	.	.
=452	=452	=452	=452	=452	=452	=452	=452	=452
4BB	.	4r	.	(2f#	.	(2ff#	.	I
4FF#	.	4F#	.	.	.	.	.	.
4BBB	.	4BB	.	4b)	.	4bb)	.	I\\
4r;	.	4r;	.	4r;	.	4r;	.	.
=453	=453	=453	=453	=453	=453	=453	=453	=453
!LO:TX:b:i:t=cresc.	!	!	!	!	!	!	!	!
(4c#	p	1r	.	1r	.	(4cc#	p	ii
4d#	.	.	.	.	.	4dd#	.	.
!	!	!	!	!	!	!LO:TX:b:i:t=cresc.	!	!
4e	.	.	.	.	.	4ee	.	.
4c#	.	.	.	.	.	4cc#	.	.
=454	=454	=454	=454	=454	=454	=454	=454	=454
!	!	!LO:TX:b:i:t=cresc.	!	!LO:TX:b:i:t=cresc.	!	!	!	!
2B	.	(4c#	.	(4cc#	.	2b	.	ii(7)
.	.	4d#	.	4dd#	.	.	.	.
2E	.	4e	.	4ee	.	2e	.	ii6
.	.	4c#	.	4cc#	.	.	.	.
=455	=455	=455	=455	=455	=455	=455	=455	=455
2G#	.	2B	.	2b	.	2g#	.	IV6
2B	.	[2E)	.	[2e)	.	2b	.	IV.I
=456	=456	=456	=456	=456	=456	=456	=456	=456
2c#	.	(2E]	.	(2e]	.	2cc#	.	.
4B)	.	4G#)	.	4g#)	.	4b)	.	.
4r;	.	4r;	.	4r;	.	4r;	.	.
=457||	=457||	=457||	=457||	=457||	=457||	=457||	=457||	=457||
*k[f#c#g#d#]	*	*k[f#c#g#d#]	*	*k[f#c#g#d#]	*	*k[f#c#g#d#]	*	*
*E:	*	*E:	*	*E:	*	*E:	*	*
!	!	!	!	!	!	!	!LO:DY:a	!
1r	.	1r	.	2r	.	4aa'	p	V43
.	.	.	.	.	.	4ff#'	.	.
.	.	.	.	4dd#'	p	2ff#	.	V7
.	.	.	.	4b'	.	.	.	.
=458	=458	=458	=458	=458	=458	=458	=458	=458
1r	.	1r	.	2r	.	4bb'	.	I6
.	.	.	.	.	.	4gg#'	.	.
.	.	.	.	4ee'	.	2gg#	.	I64
.	.	.	.	4b'	.	.	.	.
=459	=459	=459	=459	=459	=459	=459	=459	=459
1r	.	1r	.	2r	.	4aa	.	V43
.	.	.	.	.	.	4ff#	.	.
.	.	.	.	4dd#	.	4ff#	.	V7
.	.	.	.	4b	.	4ff#	.	.
=460	=460	=460	=460	=460	=460	=460	=460	=460
2r	.	2r	.	2r	.	4bb	.	I6
.	.	.	.	.	.	4eee	.	.
4GG#'	p	4G#'	p	4ee	.	2eee	.	I64
4EE'	.	4E'	.	4g#	.	.	.	.
=461	=461	=461	=461	=461	=461	=461	=461	=461
!LO:TX:b:i:t=cresc.	!	!LO:TX:b:i:t=cresc.	!	!	!	!	!	!
4AA	.	4A	.	2r	.	2r	.	V2
4FF#	.	4F#	.	.	.	.	.	.
!	!	!	!	!LO:TX:b:i:t=cresc.	!	!LO:TX:b:i:t=cresc.	!	!
4FF#	.	4F#	.	4a	.	4aa	.	V43
4FF#	.	4F#	.	4f#	.	4ff#	.	.
=462	=462	=462	=462	=462	=462	=462	=462	=462
4BB	.	4B	.	2r	.	2r	.	I64
4E	.	4e	.	.	.	.	.	.
2E	.	2e	.	4b	.	4bb	.	I
.	.	.	.	4g#	.	4gg#	.	.
=463	=463	=463	=463	=463	=463	=463	=463	=463
4AA	.	4A	.	2r	.	2r	.	V2
4FF#	.	4F#	.	.	.	.	.	.
4FF#	.	4F#	.	4a	.	4aa	.	V43
4FF#	.	4F#	.	4f#	.	4ff#	.	.
=464	=464	=464	=464	=464	=464	=464	=464	=464
1r	.	1r	.	1r	.	1r	.	.
=465	=465	=465	=465	=465	=465	=465	=465	=465
4BB	.	4B	.	1r	.	1r	.	I
4GG#	.	4G#	.	.	.	.	.	.
4EE	.	4E	.	.	.	.	.	.
4GG#	.	4G#	.	.	.	.	.	.
=466	=466	=466	=466	=466	=466	=466	=466	=466
1r	.	1r	.	1r	.	1r	.	.
=467	=467	=467	=467	=467	=467	=467	=467	=467
!	!	!	!	!LO:TX:a:t=pizz.	!	!	!	!
1r	.	2r	.	4b	.	1r	.	I6
.	.	.	.	4r	.	.	.	.
!	!	!LO:TX:a:t=pizz.	!	!	!	!	!	!
.	.	4b	.	2r	.	.	.	.
.	.	4r	.	.	.	.	.	.
=468	=468	=468	=468	=468	=468	=468	=468	=468
!	!	!	!	!	!	!LO:TX:a:t=pizz.	!	!
1r	.	1r	.	2r	.	4g#	.	.
.	.	.	.	.	.	4r	.	.
.	.	.	.	4g#	.	2r	.	.
.	.	.	.	4r	.	.	.	.
=469	=469	=469	=469	=469	=469	=469	=469	=469
1r	.	4f#	.	1r	.	2r	.	V6
.	.	4r	.	.	.	.	.	.
.	.	2r	.	.	.	4f#	.	.
.	.	.	.	.	.	4r	.	.
=470	=470	=470	=470	=470	=470	=470	=470	=470
!LO:TX:a:t=pizz.	!	!	!	!	!	!	!	!
4d#	.	1r	.	2r	.	1r	.	.
4r	.	.	.	.	.	.	.	.
2r	.	.	.	4d#	.	.	.	.
.	.	.	.	4r	.	.	.	.
=471	=471	=471	=471	=471	=471	=471	=471	=471
!LO:TX:b:t=arco	!	!	!	!	!	!	!	!
!LO:TX:a:t=sul ponticello	!	!	!	!	!	!	!	!
4ff#'	.	2r	.	1r	.	4B	.	I.I
4dd#'	.	.	.	.	.	4r	.	.
!LO:TX:b:i:t=dim.	!	!	!	!	!	!	!	!
4b'	.	4B	.	.	.	2r	.	.
4dd#'	.	4r	.	.	.	.	.	.
=472||	=472||	=472||	=472||	=472||	=472||	=472||	=472||	=472||
*k[f#c#g#d#a#]	*	*k[f#c#g#d#a#]	*	*k[f#c#g#d#a#]	*	*k[f#c#g#d#a#]	*	*
*B:	*	*B:	*	*B:	*	*B:	*	*
!	!	!	!	!	!	!LO:TX:b:i:t=dim.	!	!
!	!	!	!	!	!	!LO:TX:a:t=arco	!	!
!	!	!	!	!	!	!LO:TX:a:t=sul ponticello	!	!
4ff#'	.	2r	.	4d#	.	4ff#'	.	I6
4dd#'	.	.	.	4r	.	4dd#'	.	.
4b'	p	4d#	p	2r	.	4b'	.	.
4dd#'	.	4r	.	.	.	4dd#'	.	.
=473	=473	=473	=473	=473	=473	=473	=473	=473
!	!	!LO:TX:a:t=arco	!	!LO:TX:a:t=arco	!	!	!	!
!	!	!LO:TX:a:t=sul ponticello	!	!LO:TX:a:t=sul ponticello	!	!	!	!
4ff#	pp	4b'	pp	4dd#'	.	4ff#'	pp	I
4dd#	.	4f#'	.	4b'	pp	4dd#'	.	.
4b	.	4d#'	.	4f#'	.	4b'	.	I6
4dd#	.	4f#'	.	4b'	.	4dd#'	.	.
=474	=474	=474	=474	=474	=474	=474	=474	=474
4ff#	.	4b	.	4dd#	.	(2ff#	.	V[I
4ff#	.	4b	.	4dd#	.	.	.	.
4ff#	.	4cc#	.	4ee	.	2bb)	.	.
4ff#	.	4b	.	4dd#	.	.	.	.
=475	=475	=475	=475	=475	=475	=475	=475	=475
4ff#	.	4cc#	.	4ee	.	4aa#'	.	V43
4ff#	.	4b	.	4dd#	.	4bb'	.	.
4ff#	.	4a#	.	4cc#	.	4ccc#'	.	V65
4ff#	.	4g#	.	4b	.	4ddd#'	.	.
=476	=476	=476	=476	=476	=476	=476	=476	=476
4ff#	.	4f#	.	4a#	.	4eee	.	V7
4ff#	.	4e	.	4g#	.	4r	.	.
4ff#	.	4d#	.	4f#	.	2r	.	.
4ff#	.	4c#	.	4a#	.	.	.	.
=477	=477	=477	=477	=477	=477	=477	=477	=477
4ff#	.	4d#	.	4b	.	4ddd#	.	I6
4ff#	.	4d#	.	4b	.	4ccc#	.	.
4ff#	.	4e	.	4cc#	.	4bb	.	.
4ff#	.	4f#	.	4dd#	.	4aa#	.	.
=478	=478	=478	=478	=478	=478	=478	=478	=478
4ff#	.	4f#	.	4dd#	.	4gg#	.	V(62)
4ff#	.	4e	.	4cc#	.	4aa#	.	.
4ff#	.	4d#	.	4b	.	4bb	.	I6
4ff#	.	4c#	.	4a#	.	4ccc#	.	V43
=479	=479	=479	=479	=479	=479	=479	=479	=479
4ff#	.	4c#	.	4a#	.	4aa#	.	V64
4ff#	.	4e#X	.	4g#	.	4bb	.	V65/V
4ff#	.	4e	.	4g#	.	4gg#	.	V2(3)
4ff#	.	4e	.	4cc#	.	4aa#	.	V2
=480	=480	=480	=480	=480	=480	=480	=480	=480
4ff#	.	4d#	.	4cc#	.	4ff#	.	I6
4ff#	.	4d#	.	4b	.	4gg#	.	.
4ff#	.	4d#	.	4cc#	.	4aa#	.	.
4ff#	.	4d#	.	4dd#	.	4bb	.	.
=481	=481	=481	=481	=481	=481	=481	=481	=481
!LO:TX:b:i:t=sempre	!	!LO:TX:b:i:t=sempre	!	!LO:TX:b:i:t=sempre	!	!LO:TX:b:i:t=sempre	!	!
4ff#	.	4d#	.	4b	.	(4bb	.	.
4ff#	.	4e	.	4cc#	.	4aa#)	.	.
4ff#	pp	4cc#	pp	4ee	pp	4gg#'	pp	V43
4ff#	.	4cc#	.	4ee	.	4aa#'	.	.
=482	=482	=482	=482	=482	=482	=482	=482	=482
4ff#	.	4b	.	4dd#	.	(4bb	.	I
4ff#	.	4cc#	.	4ee	.	4aa#)	.	.
4ff#	.	4cc#'	.	4ee'	.	4gg#'	.	V43
4ff#	.	4cc#'	.	4ee'	.	4aa#'	.	.
=483	=483	=483	=483	=483	=483	=483	=483	=483
4ff#	.	4b	.	4dd#	.	(4bb	.	I
4ff#	.	4cc#	.	4ee	.	4aa#)	.	.
4ff#	.	4cc#'	.	4ee'	.	4gg#'	.	V43
4ff#	.	4cc#'	.	4ee'	.	4aa#'	.	.
=484	=484	=484	=484	=484	=484	=484	=484	=484
4ff#	.	4b	.	4dd#	.	(4bb	.	I
4ff#	.	4F#	.	4cc#	.	4ee)	.	.
4ff#	.	4F#	.	4b'	.	4dd#'	.	.
4ff#	.	4F#	.	4cc#'	.	4ee'	.	.
=485	=485	=485	=485	=485	=485	=485	=485	=485
4ff#	.	4BB	.	4dd#	.	(4ff#	.	I
4ff#	.	4C#	.	4cc#	.	4ee)	.	.
4ff#	.	4D#'	.	4b'	.	4dd#'	.	.
4ff#	.	4C#'	.	4cc#'	.	4ee'	.	.
=486	=486	=486	=486	=486	=486	=486	=486	=486
4ff#	.	4BB	.	4dd#	.	(4ff#	.	I
4ff#	.	4C#	.	4cc#	.	4ee)	.	.
4ff#	.	4D#'	.	4b'	.	4dd#'	.	.
4ff#	.	4C#'	.	4cc#'	.	4ee'	.	.
=487	=487	=487	=487	=487	=487	=487	=487	=487
4ff#	.	4BB	.	4dd#	.	(4ff#	.	I
4ff#	.	4C#	.	4cc#	.	4ee)	.	.
4ff#	.	4D#'	.	4b'	.	4dd#'	.	.
4ff#	.	4C#'	.	4cc#'	.	4ee'	.	.
=488	=488	=488	=488	=488	=488	=488	=488	=488
4ff#	.	4BB	.	4dd#	.	(4ff#	.	I
4ff#	.	4C#	.	4cc#	.	4ee)	.	.
4ff#	.	4D#'	.	4b'	.	4dd#'	.	.
4ff#	.	4C#'	.	4cc#'	.	4ee'	.	.
=489	=489	=489	=489	=489	=489	=489	=489	=489
!	!	!LO:TX:b:i:t=cresc.	!	!LO:TX:a:t=da capo per l'ordinario	!	!LO:TX:a:t=da capo per l'ordinario	!	!
!LO:TX:b:i:t=cresc.	!	!LO:TX:a:t=da capo per l'ordinario	!	!LO:TX:b:i:t=cresc.	!	!LO:TX:b:i:t=cresc.	!	!
4ff#	.	(4BB	.	(4dd#	.	(4ff#	.	I]
*clefF4	*	*	*	*	*	*	*	*
!LO:TX:a:t=da capo per l'ordinario	!	!	!	!	!	!	!	!
4BBB	.	4C#)	.	4cc#)	.	4ee)	.	.
4BBB	.	4D#'	.	4b'	.	4dd#'	.	.
4BBB	.	4C#'	.	4cc#'	.	4ee'	.	.
=490	=490	=490	=490	=490	=490	=490	=490	=490
(4BBB	.	(4D#	.	(4b	.	(4dd#	.	I
4CC#)	.	4E)	.	4f#)	.	4cc#)	.	.
4DD#'	.	4F#'	.	4d#'	.	4b'	.	.
4CC#'	.	4E'	.	4f#'	.	4cc#'	.	.
=491	=491	=491	=491	=491	=491	=491	=491	=491
(4DD#	.	(4F#	.	(4d#	.	(4b	.	I6
4FF#)	.	4A#)	.	4c#)	.	4f#)	.	.
4BB'	.	4B'	.	4F#'	.	4d#'	.	.
4FF#'	.	4BB'	.	4c#'	.	4f#'	.	.
=492	=492	=492	=492	=492	=492	=492	=492	=492
(4BB	.	(4D#	.	(4B	.	(4d#	.	I
4C#)	.	4E)	.	4F#)	.	4c#)	.	.
4D#'	.	4B'	.	4F#'	.	4B'	.	.
4F#'	.	4A#'	.	4F#'	.	4c#'	.	.
=493	=493	=493	=493	=493	=493	=493	=493	=493
(4B	.	(4d#	.	(4D#	.	(4B	.	I6
4F#)	.	4c#)	.	4F#)	.	4c#)	.	.
4D#'	.	4B'	.	4B'	.	4d#'	.	.
4F#'	.	4c#'	.	4F#'	.	4c#'	.	.
=494	=494	=494	=494	=494	=494	=494	=494	=494
(4D#	.	(4B	.	(4B	.	(4d#	.	.
4C#)	.	4F#)	.	4c#)	.	4f#)	.	.
4BB'	.	4D#'	.	4d#'	.	4b'	.	.
4C#'	.	4F#'	.	4c#'	.	4f#'	.	.
=495	=495	=495	=495	=495	=495	=495	=495	=495
(4BB	.	(4D#	.	(4d#	.	(4b	.	I
4FF#)	.	4C#)	.	4f#)	.	4cc#)	.	.
4DD#'	.	4BB'	.	4b'	.	4dd#'	.	.
4FF#'	.	4C#'	.	4f#'	.	4cc#'	.	.
=496	=496	=496	=496	=496	=496	=496	=496	=496
(4DD#	.	(4BB	.	(4b	.	(4dd#	.	I6
4CC#)	.	4AA#)	.	4cc#)	.	4ff#)	.	.
4BBB'	.	4GG#'	.	4dd#'	.	4bb'	.	.
4CC#'	.	4AA#'	.	4cc#'	.	4ff#'	.	.
=497	=497	=497	=497	=497	=497	=497	=497	=497
!	!LO:DY:a	!	!	!	!	!	!	!
4BBB	f f	4BB	.	4dd#	f	4bb	f	I
4r	.	4r	.	4r	.	4r	.	.
4B	.	4BB	.	4B	.	4B	.	.
4r	.	4r	.	4r	.	4r	.	.
=498	=498	=498	=498	=498	=498	=498	=498	=498
!	!LO:DY:a	!	!LO:DY:a	!	!	!	!	!
4BBB	ff ff	4BB 4F# 4d#	ff	4B 4f# 4dd#	.	4bb	ff	I\\
4r	.	4r	.	4r	.	4r	.	.
2r;	.	2r;	.	2r;	.	2r;	.	.
=499	=499	=499	=499	=499	=499	=499	=499	=499
4DD#	.	4d#	.	4d#	.	4dd#	.	V/vi
4r	.	4r	.	4r	.	4r	.	.
4d#	.	4D#	.	4D#	.	4D#	.	.
4r	.	4r	.	4r	.	4r	.	.
=500	=500	=500	=500	=500	=500	=500	=500	=500
4DD#	.	4D#	.	4d#	.	4dd#	.	.
!LO:TX:b:i:t=attacca	!	!	!	!	!	!	!	!
4r	.	4r	.	4r	.	4r	.	.
2r;	.	2r;	.	2r;	.	2r;	.	.
==	==	==	==	==	==	==	==	==
*-	*-	*-	*-	*-	*-	*-	*-	*-
!!!system-decoration: [(s1,s2,s3,s4)]
